bk-poudel/Unitree_Z1/joint_states.csv
q1,q2,q3,q4,q5,q6,q7,dq1,dq2,dq3,dq4,dq5,dq6,dq7
0.0,0.0,0.0,0.0,0.0,0.0,0.0,0.0,0.0,0.0,0.0,0.0
-1.4382693192472897e-08,-4.403707734463563e-05,-0.0003322098404444715,-0.00019537217004295893,-1.260971920365736e-07,1.8573023786959574e-06,-7.1913465962364485e-06,-0.022018538672317817,-0.16610492022223575,-0.09768608502147946,-6.304859601828679e-05,0.0009286511893479787
2.938380115884308e-08,-5.34257614980529e-05,-0.0009266486734141804,-0.0005438823179916335,-1.3515363783314245e-07,5.027734186151117e-06,2.1883247175657987e-05,-0.004694342076708633,-0.29721941648485445,-0.17425507397433732,-4.528222898284433e-06,0.0015852159037275798
3.2196152843753316e-07,-7.993060487535334e-05,-0.0017136630317728216,-0.0010162647065924835,6.739639037074331e-07,9.543637509346677e-06,0.00014628886363934505,-0.013252421688650224,-0.3935071791793206,-0.23619119430042504,0.0004045587707702878,0.0022579516615977794
8.198868048470098e-07,-8.796117170130798e-05,-0.002637688461760606,-0.0015775239820952271,2.382612598012215e-06,1.497755209325283e-05,0.0002489626382047383,-0.004015283412977319,-0.4620127149938921,-0.28062963775137173,0.000854324347152391,0.002716957291953076
1.5065376965120052e-06,-0.00010267106829048827,-0.0036621429342642365,-0.002211608002399156,5.1078610535671046e-06,2.1190502408796673e-05,0.00034332544583249767,-0.007354948294590151,-0.5122272362518152,-0.31704201015196437,0.0013626242277774447,0.0031064751577719214
2.325558660018742e-06,-0.00010697115725718358,-0.004762747377390714,-0.0029045081862530257,8.832650131144662e-06,2.7973523369008937e-05,0.0004095104817533685,-0.0021500444833476512,-0.5503022215632388,-0.3464500919269349,0.0018623945387887786,0.0033915104801061327
3.2272469184816064e-06,-0.00011302714942499937,-0.00591617250050485,-0.0036455114436193853,1.3502967641527578e-05,3.51726680036773e-05,0.00045084412923143214,-0.003027996083907891,-0.5767125615570681,-0.37050162868317976,0.0023351587551914584,0.0035995723173341816
4.163932330638908e-06,-0.00011277639266683262,-0.0071087531637938385,-0.004426863387220135,1.904463144209408e-05,4.2688200898877004e-05,0.0004683427060786505,0.00012537837908337037,-0.5962903316444941,-0.3906759718003748,0.002770831900283251,0.0037577664475998526
4.905294978278676e-06,-0.00011203012425343372,-0.008316779297957197,-0.005235201955623245,2.4705140949179877e-05,5.01276478178087e-05,0.000370681323819884,0.00037313420669944815,-0.6040130670816795,-0.404169284201555,0.0028302547535428986,0.0037197234594658454
5.584831882183638e-06,-0.00010714610864128815,-0.009530059051756388,-0.006064772436206499,3.080582793810092e-05,5.7690686181525315e-05,0.00033976845195248087,0.002442007806072784,-0.6066398768995959,-0.41478524029162733,0.003050343494460521,0.003781519181858309
6.258035074522677e-06,-0.00010088767881106083,-0.010732484201599163,-0.00690510827418802,3.747065376707167e-05,6.518091026934026e-05,0.0003366015961695193,0.0031292149151136654,-0.6012125749213876,-0.42016791899076017,0.003332412914485378,0.0037451120439074715
6.9719538322080065e-06,-9.16085884531918e-05,-0.011908803471095136,-0.007744711374336967,4.487236347905897e-05,7.25490828390982e-05,0.0003569593788426649,0.004639545178934515,-0.5881596347479866,-0.41980155007447395,0.0037008548559936483,0.0036840862848789672
7.669828927191552e-06,-8.072081169061998e-05,-0.01305466305831077,-0.008580616612856334,5.286838062325795e-05,7.97675811587857e-05,0.00034893754749177236,0.00544388838128591,-0.5729297936078169,-0.4179526192596838,0.003998008572099489,0.0036092491598437478
8.267599301739491e-06,-6.740282179988199e-05,-0.01415936084635482,-0.009404641481862423,6.116474014465757e-05,8.663345311766215e-05,0.0002988851872739694,0.006658994945368994,-0.5523488940220249,-0.41201243450304464,0.004148179760699812,0.003432935979438225
8.568837800526459e-06,-4.667348449110305e-05,-0.015197364538648424,-0.010192532549249431,6.896683935859912e-05,9.225549863086069e-05,0.00015061924939348408,0.010364668654389467,-0.5190018461468019,-0.39394553369350377,0.003901049606970777,0.002811022756599266
8.592792625935581e-06,-1.924784862496976e-05,-0.016172436131184374,-0.01094483003081816,7.609033101507802e-05,9.664571689014861e-05,1.197741270456102e-05,0.013712817933066645,-0.4875357962679754,-0.37614874078436455,0.003561745828239446,0.0021951091296439607
8.363596986113971e-06,1.4352180021268018e-05,-0.01708814015777905,-0.01166204518289385,8.238052871137116e-05,9.981608492624778e-05,-0.000114597819910805,0.016800014323118888,-0.45785201329733693,-0.3586075760378455,0.003145098848146574,0.0015851840180495858
7.924335847580925e-06,4.302630280201807e-05,-0.01794636356768523,-0.012344679442890005,8.776237472369183e-05,0.00010182365531884196,-0.000219630569266523,0.014337061390375026,-0.4291117049530897,-0.3413171299980775,0.0026909230061603366,0.0010037851962970935
7.3256221148752715e-06,7.777451596333916e-05,-0.01875135064233515,-0.0129925381497157,9.224188935506908e-05,0.00010277109618567219,-0.0002993568663528269,0.017374106580660544,-0.40249353732496085,-0.32392935341284734,0.0022397573156886226,0.000473720433415117
6.6300907620505065e-06,0.00011102271395831742,-0.019506137168519518,-0.013606888963604142,9.589819502958636e-05,0.00010281665278594825,-0.00034776567641238264,0.016624098997489126,-0.37739326309218296,-0.30717540694422124,0.0018281528372586424,2.2778300138030902e-05
5.87797830314004e-06,0.00014796734499456627,-0.02021428638394,-0.014187990973990703,9.879489276543365e-05,0.00010208250518692418,-0.00037605622945523334,0.018472315518124418,-0.3540746077102401,-0.29055100519328086,0.0014483488679236391,-0.0003670737995120353
5.097797710307068e-06,0.00019296379429507968,-0.020879151265764513,-0.01473691766851419,0.00010099445985228889,0.00010069099027573305,-0.00039009029641648603,0.022498224650256703,-0.33243244091225765,-0.27446334726174404,0.001099783543427621,-0.0006957574555955673
4.315423608505538e-06,0.0002447552194547952,-0.021502925909865744,-0.015254044843911713,0.00010256321474359606,9.874047156736386e-05,-0.0003911870509007648,0.025895712579857746,-0.311887322050615,-0.25856358769876137,0.0007843774456535882,-0.000975259354184599
3.5515231209553293e-06,0.00030042670756571296,-0.022087522806782656,-0.015739826669190958,0.00010356965911599255,9.631921611894763e-05,-0.00038195024377510453,0.02783574405545887,-0.2922984484584558,-0.24289091263962273,0.0005032221861982426,-0.001210627724208113
2.818866925712349e-06,0.00035689691369318415,-0.022633075590123845,-0.01619361673441441,0.00010407350416352009,9.34939376176631e-05,-0.0003663280976214901,0.028235103063735594,-0.2727763916705943,-0.2268950326117245,0.00025192252376376545,-0.0014126392506422654
2.1241132786811333e-06,0.0004161941409094603,-0.023142574430766095,-0.01661606237445953,0.00010412640590614997,9.03335901300321e-05,-0.0003473768235156079,0.029648613608138072,-0.25474942032112613,-0.21122282002256015,2.6450871314946157e-05,-0.0015801737438155
1.47738917084688e-06,0.0004768762864107401,-0.023615450660962916,-0.017006007115019966,0.00010379589748724136,8.688223733297765e-05,-0.0003233620539171266,0.03034107275063991,-0.2364381150984109,-0.19497237028021808,-0.000165254209454305,-0.0017256763985272223
8.782404410194884e-07,0.0005398408380818008,-0.02405541417663557,-0.017364757249631064,0.00010312211189016737,8.32025806707156e-05,-0.00029957436491369577,0.0314822758355303,-0.21998175783632715,-0.1793750673055486,-0.00033689279853699416,-0.0018398283311310232
3.2667969537876266e-07,0.0006044094841285862,-0.024465744420410808,-0.017693650080033874,0.0001021446528724604,7.935094220956572e-05,-0.00027578037282036284,0.032284323023392694,-0.20516512188761823,-0.16444641520140493,-0.000488729508853482,-0.0019258192305749429
3.8043468690852736e-07,0.0006580153791922437,-0.025428793281395058,-0.017636748059310998,0.00010303681564671333,6.870970008418889e-05,2.6877495764882347e-05,0.026802947531828734,-0.48152443049212557,0.028451010361437434,0.000446081387126463,-0.005320621062688416
7.364862201791999e-08,0.0007167582309844263,-0.02637423109387177,-0.017578949109749775,0.00010291979799471087,5.926616749083237e-05,-0.00015339303244530367,0.029371425896091315,-0.4727189062383564,0.028899474780611688,-5.850882600122703e-05,-0.004721766296678258
-4.315768846793365e-07,0.0007753689430100121,-0.027294853937926352,-0.017516456361253346,0.00010200254862288829,5.089743907198529e-05,-0.00025261275334862826,0.02930535601279288,-0.46031142202729153,0.031246374248214106,-0.00045862468591128814,-0.004184364209423542
-1.0275086284482535e-06,0.0008373623697344705,-0.02818894753759003,-0.017448384762196074,0.00010045438439837329,4.347233399238447e-05,-0.0002979658718844585,0.030996713362229186,-0.4470467998318398,0.03403579952863614,-0.0007740821122574979,-0.003712552539800412
-1.6408384899969885e-06,0.0009002589592114178,-0.029055256029873147,-0.017374685748694996,9.842037717152942e-05,3.6886383088674395e-05,-0.0003066649307743674,0.03144829473847366,-0.43315424614155856,0.03684950675053932,-0.0010170036134219346,-0.0032929754518550365
-2.227734112977495e-06,0.0009656820144049743,-0.029893144259183102,-0.01729516075068261,9.601589102749335e-05,3.1043130832918264e-05,-0.0002934478114902532,0.03271152759677825,-0.4189441146549782,0.03976249900619229,-0.001202243072018036,-0.002921626127878066
-2.761063289798474e-06,0.0010324531985495952,-0.030702118826603397,-0.01720993443670805,9.333840690921964e-05,2.58617962905437e-05,-0.00026666458841048956,0.03338559207231045,-0.40448728371014725,0.04261315698727989,-0.0013387420591368562,-0.002590667271187282
-3.2275714425777724e-06,0.0011013093148129357,-0.03148210617350703,-0.017119098169530153,9.046595855417628e-05,2.1269149734328695e-05,-0.0002332540763896491,0.034428058131670214,-0.3899936734518182,0.04541813358894975,-0.0014362241775216784,-0.002296323278107503
-3.6213198278348187e-06,0.0011716799070859347,-0.03223197871268718,-0.017021657995319822,8.746571062712856e-05,1.71881826707209e-05,-0.0001968741926285232,0.03518529613649949,-0.3749362695900754,0.04872008710516464,-0.001500123963523861,-0.002040483531803896
-3.943116763156261e-06,0.001243890611922154,-0.03295245662028031,-0.01691815579884661,8.43883226034096e-05,1.3567494344170888e-05,-0.00016089846766072116,0.036105352418109665,-0.3602389537965657,0.05175109823660488,-0.001538694011859482,-0.001810344163275007
-4.19647676838722e-06,0.0013176573892192559,-0.03364435821548551,-0.01680921500126957,8.127558708615635e-05,1.0362386132449145e-05,-0.00012668000261547966,0.036883388648550855,-0.3459507976025992,0.05447039878852112,-0.0015563677586266215,-0.001602554105860871
-4.387009305084653e-06,0.0013931149081640498,-0.03430829879369812,-0.01669525670100327,7.81609970328185e-05,7.53070002600534e-06,-9.526626834871637e-05,0.037728759472396935,-0.3319702891063057,0.056979150133149636,-0.0015572950266689236,-0.0014158430532219023
-4.521045091718745e-06,0.001470112043354,-0.03494498478698378,-0.016576750170184555,7.507161248927391e-05,5.035440961513706e-06,-6.701789331704615e-05,0.03849856759497517,-0.31834299664282983,0.05925326540935734,-0.0015446922717722968,-0.001247629532245817
-4.605412430270169e-06,0.0015486946632457422,-0.035555516657337694,-0.01645450171544937,7.202806774983955e-05,2.847324348731829e-06,-4.2183669275711714e-05,0.03929130994587106,-0.305265935176955,0.06112422736759327,-0.0015217723697171798,-0.0010940583063909384
-4.646618462358768e-06,0.0016287754637110436,-0.03614080384120991,-0.016329151974760318,6.904699618330572e-05,9.383481166523115e-07,-2.0603016044299714e-05,0.04004040023265066,-0.29264359193610956,0.06267487034452643,-0.0014905357832669163,-0.0009544881160397586
-4.65085552381469e-06,0.0017103586877824312,-0.03670161496877311,-0.016201181833756333,6.614136446184519e-05,-7.183801326081708e-07,-2.1185307279608016e-06,0.04079161203569385,-0.2804055637816003,0.06398507050199284,-0.0014528158607302662,-0.0008283641246302412
-4.6238138076018935e-06,0.0017933873209031834,-0.03723855331180587,-0.016070911052819215,6.332118590940708e-05,-2.148666726176199e-06,1.3520858106398478e-05,0.04151431656037606,-0.2684691715163814,0.06513539046856011,-0.0014100892762190546,-0.0007151432967840141
-4.5706813697196415e-06,0.001877845882332319,-0.037752223138741464,-0.015938549485003208,6.059390795516797e-05,-3.3769926859344074e-06,2.6566218941125994e-05,0.04222928071456781,-0.2568349134677941,0.06618078390800329,-0.001363638977119556,-0.0006141629798791041
-4.496113197437346e-06,0.0019636921160317692,-0.03824320177812177,-0.015804210001028163,5.7964823059623666e-05,-4.426384790771845e-06,3.728408614114763e-05,0.04292311684972519,-0.24548931969015378,0.06716974198752157,-0.0013145424477721513,-0.0005246960524187188
-4.404313390855398e-06,0.0020509037720781724,-0.03871212376518673,-0.015668031406164903,5.543709747884369e-05,-5.317085561692327e-06,4.5899903290974146e-05,0.04360582802320156,-0.2344609935324761,0.06808929743162928,-0.0012638627903899865,-0.00044535038546024105
-4.298986387445742e-06,0.002139446100441252,-0.03915966065936248,-0.01553017073500267,5.301223840879343e-05,-6.066926889003319e-06,5.266350170482815e-05,0.0442711641815398,-0.22376844708787527,0.06893033558111714,-0.001212429535025131,-0.00037492066365549573
-4.183359198172512e-06,0.0022292939000009165,-0.039586508347677865,-0.015390794256773751,5.0690419523110964e-05,-6.691702289631806e-06,5.7813594636615416e-05,0.04492389977983238,-0.2134238441576908,0.06968823911445883,-0.0011609094428412347,-0.00031238770031424373
-4.0601978075848854e-06,0.0023204164910818666,-0.03999337581341245,-0.01525007323776971,4.8470783071177185e-05,-7.205426865794722e-06,6.158069529381322e-05,0.04556129554047513,-0.20343373286729377,0.07036050950202069,-0.001109818225966889,-0.0002568622880814579
-3.931851809120279e-06,0.0024127878911384404,-0.040380977780291614,-0.015108179330835388,4.635166087560547e-05,-7.620584543732034e-06,6.4172999232303e-05,0.04618570002828681,-0.19380098343958138,0.0709469534671611,-0.001059561097785856,-0.00020757883896865595
-3.8003076277243213e-06,0.0025063801874480466,-0.04075004795690363,-0.014965321892870705,4.4330675699276585e-05,-7.947823775343507e-06,6.577209069797888e-05,0.046796148154803124,-0.184535088306009,0.07142871898234134,-0.0010104925881644444,-0.0001636196158057366
-3.667229466469121e-06,0.002601167972756886,-0.041101335701411446,-0.014821766769523074,4.240486615048541e-05,-8.195914567318222e-06,6.653908062760021e-05,0.047393892654419685,-0.17564387225390804,0.0717775616738153,-0.0009629047743955867,-0.0001240453959873574
-3.5339408497388105e-06,0.002697124326552818,-0.041435536297647034,-0.014677728768762154,4.057110997984748e-05,-8.373269783174317e-06,6.664430836515518e-05,0.04797817689796614,-0.16710029811779337,0.07201900038045964,-0.0009168780853189634,-8.867760792804743e-05
-3.4014999594046695e-06,0.0027942241986301333,-0.041753308244362075,-0.014533385899270456,3.882614208690609e-05,-8.487814468551022e-06,6.62204451670706e-05,0.04854993603865757,-0.15888597335752183,0.07217143474584851,-0.0008724839464706992,-5.727234268835273e-05
-3.2707505541396585e-06,0.002892442110205589,-0.04205528419916296,-0.014388889512211796,3.7166589381469684e-05,-8.546914373843691e-06,6.537470263250556e-05,0.049108955787727705,-0.15098797740044467,0.07224819352933017,-0.0008297763527182025,-2.9549952646334517e-05
-3.1423621314426727e-06,0.002991753706103051,-0.042342078038876504,-0.014244371067705219,3.558900496006956e-05,-8.557353254771519e-06,6.41942113484929e-05,0.04965579794873093,-0.1433969198567723,0.0722592222532883,-0.0007887922107000624,-5.219440463914164e-06
-3.01685923976232e-06,0.003092134689866159,-0.04261428903906401,-0.014099946962699356,3.408990488965127e-05,-8.52533419268137e-06,6.275144584017649e-05,0.05019049188155408,-0.13610550009375305,0.07221205250293088,-0.0007495500352091444,1.6009531045074643e-05
-2.894645851752178e-06,0.0031935615324179675,-0.04287250431976906,-0.01395572176838117,3.2665800330337335e-05,-8.456500305826471e-06,6.110669400507092e-05,0.050713421275904225,-0.12910764035252262,0.07211259715909324,-0.0007120522796569686,3.4416943427449434e-05
-2.7760245035652173e-06,0.003296010976319842,-0.04311730002910854,-0.01381179055004063,3.131322722129155e-05,-8.355963652779173e-06,5.9310674093480525e-05,0.051224721950937316,-0.12239785466974201,0.07196560917027042,-0.0006762865545228928,5.0268326523648994e-05
-2.661212775595295e-06,0.0033994603563964267,-0.04334924179755255,-0.013668240438410875,3.002877078429679e-05,-8.228340403788105e-06,5.740586398496109e-05,0.05172469003829229,-0.11597088422200395,0.07177505581487778,-0.0006422282184973808,6.381162449553339e-05
-2.5503568974067024e-06,0.0035038873665056264,-0.04356888468245307,-0.013525151768245184,2.880908638603204e-05,-8.07778733954918e-06,5.542793909429633e-05,0.05221350505459998,-0.1098214424502584,0.07154433508284613,-0.0006098421991323737,7.527653211946323e-05
-2.4435436303545312e-06,0.00360927020196172,-0.04377677284781758,-0.013382598866367666,2.765091593433842e-05,-7.908038998802534e-06,5.340663352608558e-05,0.05269141772804671,-0.10394408268225568,0.0712764509387588,-0.0005790852258468111,8.487417037332268e-05
-2.3408103262006914e-06,0.003715587447479255,-0.04397343907887603,-0.01324065063742163,2.655110089123893e-05,-7.722443402517068e-06,5.136665207691981e-05,0.05315862275876754,-0.09833311552922246,0.07097411447301738,-0.0005499075215497452,9.27977981427326e-05
-2.2421537116959886e-06,0.0038228181379667513,-0.04415940424137712,-0.013099370987207872,2.5506591839082865e-05,-7.52399623053011e-06,4.932830725235134e-05,0.05361534524374827,-0.09298258125054683,0.0706398251068791,-0.0005222545260780325,9.922358599347908e-05
-2.1475373834696996e-06,0.003930941702521485,-0.04433517672805507,-0.012958819153046277,2.4514455364512525e-05,-7.315372673873497e-06,4.7308164113144374e-05,0.05406178227736693,-0.08788624333897509,0.07027591708079751,-0.0004960682372851696,0.00010431177832830626
-2.05689830418103e-06,0.004039937987990541,-0.044501251938950485,-0.012819049960300713,2.3571878455045788e-05,-7.09895706764821e-06,4.53195396443348e-05,0.05449814273452804,-0.08303760544770761,0.06988459637278226,-0.00047128845473336874,0.00010820780311264345
-1.9701523334903618e-06,0.0041497872290094,-0.044658111811051546,-0.01268011403738236,2.267617094761484e-05,-6.876870096138106e-06,4.33729853453341e-05,0.054924620509429534,-0.07842993605053149,0.0694679614591766,-0.0004478537537154733,0.00011104348575505193
-1.8871989686980627e-06,0.004260470054711471,-0.0448062244145445,-0.012542057998191488,2.1824766275269924e-05,-6.650993753510868e-06,4.1476682396149584e-05,0.05534141285103561,-0.07405630174647913,0.06902801959543584,-0.0004257023361724582,0.00011293817131361939
-1.8079253501353535e-06,0.004371967470975421,-0.044946043618652336,-0.01240492460682167,2.1015220890131955e-05,-6.422994087094448e-06,3.9636809281354595e-05,0.055748708131974974,-0.0699096020539166,0.06856669568490932,-0.0004047726925689838,0.00011399983320820994
-1.73220964892143e-06,0.00448426085961985,-0.04507800883095233,-0.012268752928512688,2.024521258348401e-05,-6.194341918164694e-06,3.7857850606961806e-05,0.05614669432221421,-0.06598260614999825,0.06808583915449141,-0.0003850041533239728,0.00011432608446487698
-1.659923896670519e-06,0.0045973319664703765,-0.04520254480763706,-0.012133578473453394,1.9512537965429852e-05,-5.966331652446622e-06,3.614287612545553e-05,0.05653555342526322,-0.06226798834236458,0.06758722752964688,-0.00036633730902707785,0.00011400513285903587
-1.5909363422086829e-06,0.004711162897302294,-0.045320061532768074,-0.011999433335020057,1.8815109278239034e-05,-5.740098359535934e-06,3.449377723091804e-05,0.05691546541595861,-0.05875836256550673,0.06707256921666799,-0.0003487143435954086,0.00011311664645534397
-1.5251133904211817e-06,0.004825736108767214,-0.04543095416181614,-0.01186634632521402,1.8150950723029844e-05,-5.516633253301187e-06,3.291147589375059e-05,0.05728660573246003,-0.05544631452403381,0.06654350490301816,-0.0003320792776045948,0.00011173255311737347
-1.4623211868551695e-06,0.004941034403019468,-0.04553560302525098,-0.011734343107756303,1.7518194427506993e-05,-5.29679772774371e-06,3.1396101783006125e-05,0.05764914712612732,-0.05232443171742304,0.06600160872885828,-0.000316378147761426,0.00010991776277873882
-1.4024268949456221e-06,0.005057040920122062,-0.04563437368688716,-0.011603446329841957,1.6915076175481596e-05,-5.0813360736565605e-06,2.9947145954773637e-05,0.05800325855129735,-0.04938533081808868,0.065448388957173,-0.00030155912601269845,0.00010773082704357486
-1.3453021741841656e-06,0.005173739165331,-0.04572762910919941,-0.011473688201482537,1.63399097196643e-05,-4.870745419177102e-06,2.856236038072823e-05,0.05834912260446875,-0.04662771115612635,0.06487906417971079,-0.0002875832279086493,0.00010529532723972927
-1.2908262694383701e-06,0.005291113041714231,-0.045815757823554536,-0.01134514095292649,1.579103923903065e-05,-4.664957804462347e-06,2.7237952372897755e-05,0.05868693819161567,-0.04406435717756346,0.06427362427802365,-0.00027443524031682434,0.00010289380735737767
-1.2388642782669724e-06,0.005409146622464944,-0.045899116115367615,-0.011217861757664904,1.526695741037571e-05,-4.464032773756666e-06,2.5980995585698838e-05,0.05901679037535652,-0.04167914590653932,0.06363959763079291,-0.0002620409143274706,0.00010046251535284085
-1.1892785346153144e-06,0.005527824380442142,-0.04597803219898475,-0.011091895183514642,1.476627982104443e-05,-4.268115815176226e-06,2.4792871825829028e-05,0.059338878988599,-0.039458041808567684,0.062983287075131,-0.0002503387946656397,9.795847929021982e-05
-1.1419350500771212e-06,0.005647131026330213,-0.04605280964484717,-0.010967275234183442,1.4287725684653203e-05,-4.0774059894987285e-06,2.3671742269096652e-05,0.05965332294403535,-0.03738872293121054,0.06230997466560037,-0.00023927706819561328,9.535491283874899e-05
-1.0967070953271364e-06,0.005767051611298187,-0.04612373022991726,-0.010844027015144902,1.3830102732039768e-05,-3.892131637013431e-06,2.2613977374992434e-05,0.05996029248398693,-0.03546029253504577,0.06162410951926999,-0.00022881147630671753,9.263717624264877e-05
-1.0534767146422072e-06,0.005887571450147293,-0.04619105630181194,-0.010722168123025561,1.3392295717346858e-05,-3.7125319249210922e-06,2.161519034246459e-05,0.06025991942455288,-0.03366303594733873,0.06092944605967016,-0.00021890350734645524,8.979985604616951e-05
-1.012135136135979e-06,0.006008676165728843,-0.04625503276178731,-0.01060170979010171,1.2973257375018793e-05,-3.5388433590398387e-06,2.0670789253114053e-05,0.060552357790774974,-0.03198822998768613,0.06022916646192521,-0.0002095191711640326,8.684428294062684e-05
-9.72582432648221e-07,0.006130351651047348,-0.04631588872965031,-0.010482657842425034,1.257200142844676e-05,-3.371289942465804e-06,1.9776351743879037e-05,0.060837742659252535,-0.03042798393150265,0.059525973838338575,-0.00020062797328601706,8.377670828701725e-05
-9.347268571093442e-07,0.006252584086972862,-0.046373838956242704,-0.0103650134966554,1.2187597009437084e-05,-3.2100763482698255e-06,1.8927787769438397e-05,0.061116217962757166,-0.028975113296195724,0.05882217288481681,-0.00019220220950483794,8.060679709798935e-05
-8.984839935482662e-07,0.006375359922227429,-0.046429085026500075,-0.010248774031027532,1.1819164225728944e-05,-3.0553833194708484e-06,1.8121431780538957e-05,0.06138791762728331,-0.027623035128685292,0.05811973281393448,-0.00018421639185407012,7.734651439948853e-05
-8.637758954377994e-07,0.006498665878886911,-0.046481816394551255,-0.010133933348944501,1.1465870523912402e-05,-2.907364861958345e-06,1.7354049055233444e-05,0.061652978329741044,-0.026365684025589805,0.057420341041514986,-0.00017664685090827098,7.400922875625156e-05
-8.305302542990174e-07,0.006622488940612591,-0.04653221127975508,-0.010020482457130508,1.1126927684348798e-05,-2.766146756442271e-06,1.6622820569390957e-05,0.06191153086283986,-0.025197442601911948,0.056725445906996415,-0.00016947141978180158,7.060905275803712e-05
-7.98679657265376e-07,0.006746816352608804,-0.046580437450098454,-0.009908409871461066,1.0801589255546076e-05,-2.631826101734086e-06,1.5925298516820716e-05,0.06216370599810676,-0.02411308517168899,0.05603629283472053,-0.00016266921440136084,6.716032735409251e-05
-7.681609355624621e-07,0.006871635613695536,-0.04662665291219276,-0.009797701964310561,1.0489148331273826e-05,-2.5044716031831564e-06,1.5259360851456938e-05,0.062409630543366214,-0.023107731047155147,0.0553539535752525,-0.0001562204621361254,6.367724927546477e-05
-7.389146155028233e-07,0.006996934473790135,-0.046671006524821014,-0.009688343262526097,1.0188935567108295e-05,-2.3841244210983318e-06,1.4623160029819386e-05,0.06264943004729967,-0.022176806314124844,0.05467935089223222,-0.0001501063820827654,6.0173591042412354e-05
-7.108844599462182e-07,0.007122700927810433,-0.046713638548766194,-0.009580316704906139,9.900317382026747e-06,-2.2707994071136545e-06,1.4015077778302577e-05,0.06288322701014876,-0.0213160119725904,0.05401327880997922,-0.00014430909254077394,5.666250699233869e-05
-6.840170947720187e-07,0.007248923212094011,-0.0467546811438557,-0.009473603865439576,9.622694291291187e-06,-2.1644866125919277e-06,1.3433682587099746e-05,0.0631111421417891,-0.020521297544751602,0.05335641973328096,-0.00013881154536778023,5.315639726086347e-05
-6.582617060209209e-07,0.007375589799214865,-0.046794258821618515,-0.009368185148085812,9.3554993419066e-06,-2.0651529669624395e-06,1.2877694375548861e-05,0.06333329356042726,-0.01978883888140912,0.05270935867688204,-0.00013359747469229375,4.9666822814744055e-05
-6.335697980773248e-07,0.007502689393991456,-0.04683248886064306,-0.009264039957374683,9.098196624058066e-06,-1.972744055740723e-06,1.2345953971798054e-05,0.06354979738829523,-0.019115019512274886,0.05207259535556448,-0.00012865135892426696,4.620445561085825e-05
-6.098950006370681e-07,0.00763021092879879,-0.04686948169016896,-0.009161146848643482,8.850279844664524e-06,-1.8871859391142851e-06,1.183739872012832e-05,0.06376076740366692,-0.01849641476295089,0.051446554365600826,-0.00012395838969677105,4.2779058313218964e-05
-5.871929155747466e-07,0.007758143559465103,-0.0469053412465313,-0.009059483660841812,8.611270950977681e-06,-1.8083869703317441e-06,1.1351042531160768e-05,0.0639663153331566,-0.01792977818116882,0.05083159390083536,-0.0001195044468434221,3.939948439127049e-05
-5.654209946232282e-07,0.007886476660888165,-0.04694016530611019,-0.008959027634461873,8.38071879849118e-06,-1.7362395811541334e-06,1.0885960475759204e-05,0.06416655071153095,-0.017412029789446594,0.050228013189969216,-0.00011527607624325054,3.6073694588805314e-05
-5.445384411411473e-07,0.008015199822958032,-0.04697404579781568,-0.008859755516613768,8.158197858516906e-06,-1.6706220122907931e-06,1.0441276741040456e-05,0.06436158103493382,-0.01694024585274498,0.04963605892405274,-0.00011126046998713744,3.280878443167015e-05
-5.245061298080379e-07,0.008144302846389386,-0.047007069097531815,-0.008761643654986719,7.943306963797888e-06,-1.6113999721417063e-06,1.001615566655469e-05,0.06455151171567734,-0.0165116498580685,0.04905593081352429,-0.00010744544735950892,2.9611020074543368e-05
-5.052865396976334e-07,0.00827377573873241,-0.04703931630652724,-0.008664668082102494,7.735668091021812e-06,-1.5584282133603875e-06,9.60979505520226e-06,0.06473644617151175,-0.016123604497711365,0.04848778644211298,-0.00010381943638803803,2.6485879390659435e-05
-4.868436968505212e-07,0.008403608710379686,-0.047070863515456494,-0.008568804591067363,7.5349251804010836e-06,-1.5115520201999445e-06,9.221421423556118e-06,0.06491648582363851,-0.01577360446462949,0.04793174551756506,-0.00010037145531036419,2.3438096580221415e-05
-4.691494973654067e-07,0.00853379229660384,-0.04710178016594424,-0.008474036335485479,7.340715751447848e-06,-1.4705038820521135e-06,8.84709974255725e-06,0.06509179311207754,-0.015458325243874483,0.047384127790941824,-9.710471447661776e-05,2.0524069073915474e-05
-4.5217369659383655e-07,0.008664317047986281,-0.047132129200148275,-0.008380347183580631,7.152701419937944e-06,-1.4350085698816026e-06,8.487900385785083e-06,0.06526237569122055,-0.015174517102016916,0.04684457595242348,-9.400716575495246e-05,1.7747656085255475e-05
-4.358830216756417e-07,0.008795173787105768,-0.047161967893871115,-0.008287719307350862,6.970574873662144e-06,-1.4048191118640779e-06,8.145337459097427e-06,0.06542836955974318,-0.014919346861421885,0.04631393811488463,-9.106327313789993e-05,1.5094729008762348e-05
-4.202433701041006e-07,0.00892635346853331,-0.04719134855161091,-0.0081961335405463,6.79405523323739e-06,-1.3797104821300191e-06,7.819825785770558e-06,0.065589840713772,-0.014690328869898567,0.04579288340228123,-8.82598202123771e-05,1.2554314867029331e-05
-4.0522128181116143e-07,0.009057847267930887,-0.04722031910152639,-0.008105569660442838,6.622884116172812e-06,-1.359474924060751e-06,7.511044146469588e-06,0.06574689969878768,-0.014485274957739557,0.04528194005173105,-8.558555853228887e-05,1.0117779034633997e-05
-3.907847054923692e-07,0.009189646516070397,-0.04724892359097073,-0.008016006632066927,6.456822634168564e-06,-1.3439181119161859e-06,7.2182881593961115e-06,0.06589962406975541,-0.014302244722170097,0.044781514187955014,-8.303074100212397e-05,7.77840607228263e-06
-3.7690344572911145e-07,0.009321742737868243,-0.0472772026111729,-0.0079274228042683,6.295648864809273e-06,-1.3328563014120357e-06,6.940629881628886e-06,0.06604811089892278,-0.01413951010108554,0.04429191389931358,-8.058688467964575e-05,5.530905252075035e-06
-3.635493073490213e-07,0.009454127620373674,-0.047305193655556146,-0.007839796077600233,6.1391558703880205e-06,-1.3261140530580183e-06,6.677069190045071e-06,0.06619244125271527,-0.013995522191622934,0.04381336333403287,-7.824649721062602e-05,3.37112417700873e-06
-3.506961169761059e-07,0.009586793028908353,-0.04733293142823986,-0.007753104041003011,5.987150028110021e-06,-1.323522556028673e-06,6.426595186457692e-06,0.06633270426733948,-0.013868886341858592,0.04334601829861109,-7.600292113899973e-05,1.2957485146727476e-06
-3.3831962966001713e-07,0.009719730990673588,-0.047360448107623826,-0.0076673240879620895,5.839449685144976e-06,-1.3249183287966906e-06,6.188243658044392e-06,0.06646898088261709,-0.013758339691983163,0.042889976520460935,-7.385017148252244e-05,-6.978863840088666e-07
-3.2639740186161447e-07,0.009852933700450789,-0.04738777357498023,-0.007582433512024492,5.6958840150498895e-06,-1.33014228281619e-06,5.96111389920133e-06,0.06660135488860054,-0.013662733678204059,0.04244528796879905,-7.17828350475432e-05,-2.6119770097497077e-06
-3.149086324487638e-07,0.009986393511421053,-0.04741493561223177,-0.00749840958760255,5.556292069745543e-06,-1.3390390256464825e-06,5.7443847064253425e-06,0.06672990548513166,-0.013581018625768522,0.04201196221097066,-6.97959726521732e-05,-4.4483714151461935e-06
-3.0383400660280663e-07,0.01012010293613728,-0.04744196007506114,-0.00741522963687137,5.420521961176745e-06,-1.3514563804873506e-06,5.537312922978572e-06,0.06685471235811292,-0.013512231414687492,0.04158997536559045,-6.788505428439915e-05,-6.208677420434126e-06
-2.931555409845216e-07,0.010254054640705067,-0.04746887104458735,-0.0073328710861877205,5.288430162809785e-06,-1.3672450522369e-06,5.3392328091425035e-06,0.06697585228389429,-0.01345548476310469,0.04117927534182446,-6.604589918347999e-05,-7.894335874774737e-06
-2.828564438248857e-07,0.010388241443644496,-0.04749569096151838,-0.007251311512989272,5.159880895239759e-06,-1.3862584190879197e-06,5.149548579817974e-06,0.06709340146971388,-0.013409958465515797,0.040779786599224405,-6.427463378501313e-05,-9.506683425509871e-06
-2.729209870493882e-07,0.01052265631166782,-0.04752244074516965,-0.007170528685233641,5.034745587122635e-06,-1.4083524094694892e-06,4.967728387748754e-06,0.06720743401166214,-0.013374891825634816,0.0403914138778153,-6.256765405856196e-05,-1.1046995190784773e-05
-2.6333439478898543e-07,0.010657292357630434,-0.04754913989989296,-0.007090500594223146,4.912902391766951e-06,-1.4333854483692022e-06,4.793296130201381e-06,0.06731802298130714,-0.013349577361656963,0.040014045505247474,-6.092159767784213e-05,-1.2516519449856528e-05
-2.5408274529366777e-07,0.010792142837096536,-0.047575806610637615,-0.007011205482097352,4.794235752821815e-06,-1.4612184497234496e-06,4.625824747658833e-06,0.06742523973305022,-0.013333355372324584,0.039647556062897105,-5.933331947256803e-05,-1.3916500677123625e-05
-2.451528868188157e-07,0.010927201145928118,-0.04760245782933228,-0.006932621864663453,4.678636008091216e-06,-1.491714843828926e-06,4.464929237426027e-06,0.06752915441579092,-0.013325609347329662,0.03929180871694944,-5.7799872365299654e-05,-1.5248197052738175e-05
-2.3653236491879547e-07,0.011062460817266782,-0.047629109353313395,-0.006854728550388092,4.565999026947664e-06,-1.524740626285482e-06,4.31026095001013e-06,0.06762983566933194,-0.013325761990560438,0.03894665713768039,-5.6318490571775793e-05,-1.6512891228278064e-05
-2.282093604083672e-07,0.011197915519011406,-0.04765577589693986,-0.006777504656055679,4.456225875136555e-06,-1.5601644213352113e-06,4.161502255214132e-06,0.06772735087231221,-0.01333327181323123,0.03861194716620669,-5.48865759055548e-05,-1.7711897524864654e-05
-2.2017263599147287e-07,0.011333559051044299,-0.047682471157263075,-0.006700929619637004,4.3492225039662035e-06,-1.5978575519234438e-06,4.018362208447167e-06,0.06782176601644674,-0.013347630161606174,0.038287518209337505,-5.350168558517596e-05,-1.8846565294116258e-05
-2.1241149054537785e-07,0.011469385342711007,-0.04770920787453405,-0.006624983210739902,4.2448994602981615e-06,-1.6376941121738673e-06,3.880572723047506e-06,0.06791314583335455,-0.013368358635488173,0.037973204448550735,-5.2161521834021135e-05,-1.991828012521179e-05
-2.049157195979293e-07,0.011605388450210705,-0.04773599788816505,-0.00654964553900981,4.143171615362465e-06,-1.6795510380781913e-06,3.747885473724263e-06,0.06800155374984868,-0.013395006815499232,0.03766883586504624,-5.0863922467848104e-05,-2.0928462952161968e-05
-1.9767558109569907e-07,0.011741562554128337,-0.04776285218869011,-0.006474897060751233,4.04395791026006e-06,-1.7233081740190069e-06,3.620069251115127e-06,0.06808705195881608,-0.013427150262527105,0.037374239129288216,-4.960685255120275e-05,-2.187856797040781e-05
-1.9068176544387113e-07,0.011877901956951105,-0.04778978096616626,-0.006400718584024441,3.947181116830507e-06,-1.768848333005863e-06,3.4969078259139742e-06,0.0681697014113841,-0.013464388738077081,0.03708923836339599,-4.838839671477658e-05,-2.277007949342809e-05
-1.8392536912769645e-07,0.012014401080674508,-0.047816793655400924,-0.006327091272414886,3.852767612545009e-06,-1.81605734949805e-06,3.3781981580873397e-06,0.06824956186170157,-0.013506344617332118,0.03681365580477772,-4.720675214274897e-05,-2.3604508246093496e-05
-1.7739787123063372e-07,0.012151054464425458,-0.04784389897832481,-0.006253996647654765,3.760647168498782e-06,-1.8648241239262e-06,3.263748948531359e-06,0.06832669187547499,-0.013552661461942731,0.036547312380060114,-4.606022202311368e-05,-2.4383387214074942e-05
-1.71091112363574e-07,0.012287856762150499,-0.047871104983788326,-0.006181416591241456,3.670752749598528e-06,-1.9150406585685723e-06,3.1533794335298653e-06,0.06840114886252055,-0.013603002731757324,0.036290028206654404,-4.4947209450127064e-05,-2.5108267321186204e-05
-1.6499727555865362e-07,0.012424802740335158,-0.04789841908501581,-0.0061093333451819574,3.583020326253008e-06,-1.9666020846095705e-06,3.0469184024602e-06,0.0684729890923294,-0.013657050613744058,0.03604162302974927,-4.386621167276007e-05,-2.5780713020499072e-05
-1.5910886880377947e-07,0.012561887275776333,-0.04792584809492195,-0.0060377295119704326,3.4973886968988843e-06,-2.0194066804993536e-06,2.944203377437069e-06,0.06854226772058704,-0.013714504953071208,0.035801916605762575,-4.2815814677061884e-05,-2.6402297944891516e-05
-1.5341870893527555e-07,0.012699105353391495,-0.047953398259465416,-0.0059665880538936605,3.4137993208038973e-06,-2.073355881838147e-06,2.845079934251965e-06,0.06860903880758153,-0.01377508227173203,0.035570729038385894,-4.179468804749348e-05,-2.6974600669396746e-05
-1.4791990668035295e-07,0.012836452064074433,-0.04798107528919324,-0.0058958922917446786,3.3321961606099273e-06,-2.1283542831586227e-06,2.749401127461301e-06,0.06867335534146873,-0.013838514863910124,0.03534788107449113,-4.080158009698496e-05,-2.7499200660237912e-05
-1.4260585267411085e-07,0.012973922602589788,-0.048008884389109455,-0.005825625903015563,3.2525255341355124e-06,-2.1843096320330684e-06,2.6570270031210507e-06,0.0687352692576775,-0.013904549958107613,0.035133194364557925,-3.983531323720737e-05,-2.7977674437222802e-05
-1.3747020432126782e-07,0.013111512265510257,-0.048036830286985986,-0.005755772919630486,3.174735974974013e-06,-2.241132815999966e-06,2.5678241764215148e-06,0.06879483146023457,-0.013972948938265612,0.03492649169253841,-3.889477958074979e-05,-2.841159198344885e-05
-1.3250687339540596e-07,0.013249216449192597,-0.048064917260219865,-0.005686317725273161,3.0987781014544594e-06,-2.2987378428210857e-06,2.481665462930928e-06,0.06885209184117014,-0.014043486616938959,0.034727597178662264,-3.797893675977681e-05,-2.8802513410559844e-05
-1.2273178774773288e-07,0.013379334215236027,-0.048090531675871614,-0.005615577227926062,3.0365932601027756e-06,-2.3724485379428605e-06,4.8875428238365435e-06,0.06505888302171445,-0.012807207825873601,0.035370248673549695,-3.109242067584182e-05,-3.685534756088732e-05
-1.1218116357203526e-07,0.013505053801705653,-0.04811452223246201,-0.005543743101802729,2.981601865314272e-06,-2.4596310442415536e-06,5.275312087848812e-06,0.06285979323481324,-0.011995278295196008,0.035917063061666345,-2.749569739425176e-05,-4.359125314934659e-05
-1.0652154045326213e-07,0.013634790781040398,-0.048137921385394244,-0.005470634112627072,2.9226446196390126e-06,-2.564452826673849e-06,2.82981155938656e-06,0.06486848966737274,-0.011699576466118002,0.036554494587828466,-2.947862283762974e-05,-5.241089121614763e-05
-1.0137652666866868e-07,0.013762828738919554,-0.04816093305793371,-0.005397007291275352,2.8653408037711674e-06,-2.6734023720892686e-06,2.5725068922967266e-06,0.06401897893957748,-0.011505836269732722,0.03681341067586032,-2.865190793392262e-05,-5.447477270770975e-05
-9.899532408388405e-08,0.013893012725489177,-0.04818411595227335,-0.0053228422987025865,2.804920638475053e-06,-2.7877835571273774e-06,1.1906012923923172e-06,0.06509199328481184,-0.011591447169819932,0.037082496286382376,-3.0210082648057232e-05,-5.719059251905441e-05
-9.712909003085039e-08,0.014022717534805466,-0.04820762379469678,-0.005248541572155994,2.7442611818824307e-06,-2.9009300742331323e-06,9.331170265168305e-07,0.06485240465814487,-0.011753921211714166,0.03715036327329614,-3.0329728296311236e-05,-5.65732585528775e-05
-9.663319984618665e-08,0.01415369575651109,-0.048231750683735426,-0.00517414541252899,2.6814519547006026e-06,-3.013069006469969e-06,2.4794509233187013e-07,0.06548911085281206,-0.012063444519324286,0.037198079813502254,-3.140461359091395e-05,-5.606946611841829e-05
-9.635304478534956e-08,0.0142847375015461,-0.04825658775369381,-0.005099876735691069,2.618073624405659e-06,-3.1209467460525724e-06,1.4007753041854477e-07,0.06552087251750441,-0.012418534979194405,0.037134338418960404,-3.1689165147471776e-05,-5.3938869791301576e-05
-9.659355053612827e-08,0.014416637511380559,-0.0482822765940752,-0.005025783783490856,2.553496777350249e-06,-3.2245932652161383e-06,-1.2025287538935466e-07,0.06595000491722912,-0.012844420190694384,0.03704647610010642,-3.2288423527704986e-05,-5.182325958178299e-05
-9.677027029408875e-08,0.01454883417109173,-0.048308855061521626,-0.004951991136645002,2.4886676274387296e-06,-3.3225401403671666e-06,-8.835987898024522e-08,0.06609832985558488,-0.013289233723214357,0.036896323422927084,-3.241457495575964e-05,-4.897343757551425e-05
-9.69903123757278e-08,0.01468168392603294,-0.048336375794404814,-0.004878537516537903,2.4234951156683792e-06,-3.414891969166643e-06,-1.1002104081952626e-07,0.06642487747060519,-0.013760366441593381,0.03672681005354931,-3.258625588517515e-05,-4.61759143997382e-05
-9.697150000914828e-08,0.014814922296651939,-0.04836483762232371,-0.004805491805169569,2.35858357474833e-06,-3.501116842546366e-06,9.406183289764069e-09,0.06661918530949922,-0.014230913959445982,0.03652285568416698,-3.245577046002453e-05,-4.311243668986156e-05
-9.676125759081433e-08,0.01494870535380471,-0.0483942414714657,-0.004732879709676318,2.2940367265391394e-06,-3.5814368959174957e-06,1.0512120916697338e-07,0.06689152857638608,-0.014701924570994826,0.036306047746625505,-3.227342410459536e-05,-4.016002668556489e-05
-9.623812788617728e-08,0.01508290500277918,-0.04842456028267929,-0.00466073762464879,2.230252298471366e-06,-3.65580446434289e-06,2.615648523185266e-07,0.06709982448723431,-0.015159405606796775,0.036071042513764175,-3.189221403388672e-05,-3.718378421269696e-05
-9.54378403819207e-08,0.015217585894458924,-0.04845576568154167,-0.004589079675881464,2.1673760864130015e-06,-3.7245293928395354e-06,4.0014375212828837e-07,0.06734044583987224,-0.015602699431188586,0.03582897438366298,-3.1438106029182206e-05,-3.4362464248322884e-05
-9.432282087858307e-08,0.015352682720431136,-0.048487815064567674,-0.004517922882172966,2.1056678402062197e-06,-3.787803124575729e-06,5.57509751668813e-07,0.06754841298610607,-0.01602469151300373,0.03557839685424873,-3.085412310339091e-05,-3.163686586809671e-05
-9.292967347442293e-08,0.015488218601893788,-0.048520664499521214,-0.004447272480822426,2.045253409238165e-06,-3.84598058731785e-06,6.965737020800686e-07,0.06776794073132632,-0.01642471747676877,0.03532520067527056,-3.0207215484027364e-05,-2.9088731371060594e-05
-9.126234521845559e-08,0.015624157311340307,-0.04855426335870197,-0.004377133783666635,1.9862944583564577e-06,-3.899358358060676e-06,8.336641279836703e-07,0.06796935472325993,-0.016799429590378837,0.035069348577895454,-2.9479475440853706e-05,-2.6688885371412902e-05
-8.935866723458322e-08,0.015760503277098,-0.04858856065598324,-0.004307505734101993,1.928877070405698e-06,-3.948300916288054e-06,9.518389919361883e-07,0.0681729828788453,-0.0171486486406373,0.034814024782320964,-2.87086939753798e-05,-2.4471279113689172e-05
-8.724076326412345e-08,0.01589723390701229,-0.048623502924324574,-0.004238386558585346,1.8730914617866977e-06,-3.993137125540921e-06,1.0589519852298826e-06,0.06836531495714523,-0.017471134170666328,0.03455958775832372,-2.789280430950027e-05,-2.2418104626433464e-05
-8.494504792147483e-08,0.01603434538039808,-0.04865903737423543,-0.004169770998792216,1.818982819711171e-06,-4.034216773486665e-06,1.1478576713243087e-06,0.06855573669289514,-0.01776722495542691,0.03430777989656474,-2.7054321037763287e-05,-2.053982397287228e-05
-8.24992345916943e-08,0.016171821652353254,-0.04869511111513054,-0.004101653046043738,1.7665894997877242e-06,-4.0718624257309804e-06,1.222906664890267e-06,0.06873813597758811,-0.01803687044755535,0.03405897637423935,-2.619665996172344e-05,-1.8822826122157513e-05
-7.993590939756084e-08,0.016309655419410162,-0.04873167274277642,-0.004034024792926652,1.715922035000757e-06,-4.106394964338033e-06,1.2816625970667283e-06,0.06891688352845357,-0.018280813822937943,0.03381412655854279,-2.5333732393483598e-05,-1.726626930352647e-05
-7.728194469108235e-08,0.016447833921000046,-0.048768672081888974,-0.003966877780524556,1.666981984697956e-06,-4.138111491480979e-06,1.3269823532392442e-06,0.06908925079494205,-0.018499669556275727,0.03357350620104805,-2.4470025151400563e-05,-1.5858263571472688e-05
-7.456472354553666e-08,0.016586348536037993,-0.0488060609779072,-0.003900202548952107,1.619753515122721e-06,-4.16729719243639e-06,1.3586105727728475e-06,0.0692573075189728,-0.018694448009112914,0.03333761578622452,-2.361423478761747e-05,-1.4592850477705739e-05
-7.180735393297294e-08,0.01672518827644796,-0.048843793216540664,-0.0038339893146997006,1.5742130719020903e-06,-4.194215546817584e-06,1.3786848062818606e-06,0.069419870204983,-0.01886611931673129,0.033106617126203136,-2.277022161031541e-05,-1.3459177190596891e-05
-6.903161285307384e-08,0.01686434417744904,-0.04888182490157732,-0.003768227812617986,1.530326421990695e-06,-4.219114199978572e-06,1.387870539949544e-06,0.0695779505005414,-0.019015842518328344,0.032880751040857435,-2.1943324955697655e-05,-1.2449326580494166e-05
-6.62558711355743e-08,0.0170038063137158,-0.04892011441573098,-0.0037029076432758545,1.4880538507578297e-06,-4.242220994067664e-06,1.3878708587497756e-06,0.06973106813337869,-0.01914475707683201,0.032660084671065584,-2.1136285616432725e-05,-1.155339704454594e-05
-6.349656868244126e-08,0.017143565805666658,-0.048958622577376196,-0.003638018229350668,1.4473494567770908e-06,-4.263747213958307e-06,1.379651226566516e-06,0.06987974597542945,-0.019254080822607357,0.03244470696259333,-2.0352196990369378e-05,-1.0763109945321792e-05
-6.076739631430292e-08,0.017283613448996135,-0.04899731259550108,-0.0035735489964331484,1.4081640759641496e-06,-4.283886349932507e-06,1.3645861840691752e-06,0.07002382166473857,-0.019345009062443397,0.03223461645875972,-1.9592690406470663e-05,-1.006956798710004e-05
-5.808010231065753e-08,0.01742394062948208,-0.04903615010595595,-0.0035094893692216877,1.3704454092030066e-06,-4.302816169526712e-06,1.3436470018226923e-06,0.07016359024297206,-0.019418755227437197,0.03202981360573041,-1.8859333380571505e-05,-9.464909797102433e-06
-5.544424462104561e-08,0.017564538691605958,-0.049075103108982145,-0.003445828865908574,1.3341397300241885e-06,-4.320698729960394e-06,1.3179288448059607e-06,0.07029903106193884,-0.019476501513096992,0.03183025165655684,-1.815283958940907e-05,-8.941280216840818e-06
-5.2868529897914846e-08,0.01770539931840291,-0.04911415797871908,-0.003382568122312911,1.2991815364092384e-06,-4.337567971223506e-06,1.2878573615653816e-06,0.07043031339847523,-0.01952743486846759,0.03163037179783159,-1.7479096807475085e-05,-8.434620631556365e-06
-5.035537209339492e-08,0.017846514388666915,-0.04915326592776776,-0.003319682836398225,1.265535876467769e-06,-4.353717347631267e-06,1.256578902259962e-06,0.07055753513200426,-0.019553974524342654,0.031442642957343045,-1.6822829970734723e-05,-8.074688203880357e-06
-4.791234166851514e-08,0.017987875828404023,-0.04919242032698656,-0.003257175414363201,1.2331331633714513e-06,-4.3691344804218994e-06,1.2215152124398892e-06,0.07068071986855422,-0.019577199609400745,0.03125371101751204,-1.620135654815884e-05,-7.70856639531596e-06
-4.554100690016096e-08,0.01812947596153903,-0.049231594723290556,-0.0031950340627534143,1.2019261645409706e-06,-4.3839601926559765e-06,1.185667384177092e-06,0.0708000665675046,-0.0195871981519946,0.03107067580489341,-1.560349941524027e-05,-7.412856117038359e-06
-4.324225573806366e-08,0.018271307132541173,-0.049270747699343226,-0.003133235579257611,1.1718776896787328e-06,-4.398440181000889e-06,1.1493755810486508e-06,0.07091558550107027,-0.01957648802633442,0.030899241747901637,-1.5024237431118915e-05,-7.239994172456181e-06
-4.1021315304336905e-08,0.01841336192349464,-0.04930986017579703,-0.0030717707940881517,1.142928758620572e-06,-4.412647706423233e-06,1.1104702168633756e-06,0.07102739547673441,-0.019556238226899107,0.030732392584729512,-1.4474465529080458e-05,-7.1037627111720345e-06
-3.8882225382254725e-08,0.018555633054103085,-0.049348930779192036,-0.003010641997221061,1.115012221669765e-06,-4.426531221168498e-06,1.069544961041089e-06,0.0711355653042212,-0.01953530169750605,0.030564398433545397,-1.3958268475403492e-05,-6.941757372632836e-06
-3.682401048275944e-08,0.01869811349851849,-0.04938793454130916,-0.002949836075655294,1.088083369686411e-06,-4.440204422972049e-06,1.0291074497476421e-06,0.07124022220770225,-0.019501881058559958,0.030402960782883556,-1.3464425991676882e-05,-6.836600901775494e-06
-3.4846752989330626e-08,0.018840796271661547,-0.049426846841192834,-0.0028893398066503224,1.0620959557735156e-06,-4.453768996197444e-06,9.886287467144084e-07,0.07134138657152894,-0.019456149941838616,0.030248134502485823,-1.299370695644777e-05,-6.782286612697583e-06
-3.295109638190198e-08,0.018983674635146042,-0.049465643656594456,-0.0028291399648645065,1.0370028562642582e-06,-4.4673150011145435e-06,9.478283037143231e-07,0.07143918174224684,-0.019398407700810628,0.03009992089290798,-1.2546549754628727e-05,-6.773002458550107e-06
-3.113768672053741e-08,0.019126742019735403,-0.04950427991243624,-0.002769209934484446,1.0127666837730891e-06,-4.481056011537009e-06,9.067048306822889e-07,0.07153369229468004,-0.019318127920893848,0.029965015190030263,-1.2118086245584572e-05,-6.870505211232747e-06
-2.941010695791349e-08,0.019269991892901264,-0.04954273768484665,-0.002709539250815508,9.893312394324335e-07,-4.495017180359095e-06,8.637898813119574e-07,0.07162493658292947,-0.019228886205201003,0.029835341834468936,-1.1717722170327814e-05,-6.9805844110429564e-06
-2.776958366770829e-08,0.019413418028778443,-0.049580999416473474,-0.002650117290344377,9.6664509393599e-07,-4.509222804546828e-06,8.202616451026013e-07,0.07171306793858993,-0.019130865813411564,0.029710980235565475,-1.1343072748221716e-05,-7.10281209386637e-06
-2.62152045401371e-08,0.019557014147790208,-0.04961907208085876,-0.0025909476803883127,9.446524174327379e-07,-4.523553920009185e-06,7.771895637855941e-07,0.07179805950588188,-0.01903633219264101,0.029584804978032155,-1.0996338251626027e-05,-7.165557731178619e-06
-2.4742319096440332e-08,0.01970077437232629,-0.04965693483963632,-0.002532017237151471,9.23319966023688e-07,-4.5380743176438125e-06,7.364427218483847e-07,0.07188011226804024,-0.018931379388781613,0.029465221618420873,-1.0666225704524946e-05,-7.260198817313686e-06
-2.3347427873147824e-08,0.019844692682593597,-0.04969456865514034,-0.002473313414739104,9.026145035234417e-07,-4.552833995170561e-06,6.974456116462536e-07,0.07195915513365436,-0.01881690775200884,0.029351911206183388,-1.0352731250123157e-05,-7.37983876337399e-06
-2.2027857165660707e-08,0.01998876338248029,-0.04973195630532911,-0.002414824263718446,8.825030910232661e-07,-4.567871514272393e-06,6.597853537435583e-07,0.0720353499433467,-0.018693825094384265,0.029244575510329253,-1.0055706250087807e-05,-7.518759550915873e-06
-2.0781124810440964e-08,0.02013298077600633,-0.04976908235635563,-0.002356538445872408,8.629540655395146e-07,-4.5832150802707745e-06,6.233661776098712e-07,0.07210869676301963,-0.018563025513262058,0.029142908923018906,-9.774512741875752e-06,-7.671782999190936e-06
-1.9604841621451187e-08,0.020277339378214927,-0.04980593315593867,-0.002298445208445443,8.439372395994221e-07,-4.5988842024373386e-06,5.881415944948889e-07,0.07217930110429825,-0.018425399791516726,0.029046618713482665,-9.508412970046253e-06,-7.83456108328193e-06
-1.8496474457582912e-08,0.020421833764707062,-0.049842496803332775,-0.0022405343827549633,8.254243742919629e-07,-4.614890712919505e-06,5.541835819341371e-07,0.07224719324606806,-0.01828182369705202,0.02895541284523976,-9.256432653729569e-06,-8.003255241083048e-06
-1.7453353841420425e-08,0.020566458665971628,-0.04987876312484719,-0.002182796362952029,8.073892620362192e-07,-4.631240000296236e-06,5.215603080812441e-07,0.07231245063228325,-0.018133160757204683,0.028869009901467183,-9.017556127871863e-06,-8.174643688365752e-06
-1.647398823970353e-08,0.020711209012588782,-0.04991469455817778,-0.00212520596055099,7.898148088725082e-07,-4.648087096454503e-06,4.896828008584474e-07,0.07237517330857746,-0.01796571666529505,0.028795201200519416,-8.787226581855514e-06,-8.423548079133465e-06
-1.5558200005748254e-08,0.020856079579055206,-0.04995029003282384,-0.0020677577582639867,7.726691094156247e-07,-4.665376282192865e-06,4.57894116977638e-07,0.07243528323321183,-0.017797737323034035,0.028724101143501785,-8.572849728441746e-06,-8.644592869180867e-06
-1.4702091590426679e-08,0.02100106542982793,-0.04998557939182217,-0.002010462873705814,7.559199353012909e-07,-4.6829013726853115e-06,4.2805420766078754e-07,0.07249292538636229,-0.017644679499162062,0.028647442279086294,-8.374587057166891e-06,-8.762545246223258e-06
-1.3900815408685112e-08,0.021146161936499066,-0.050020526112880596,-0.0019532959602858017,7.395632780237548e-07,-4.700832674971275e-06,4.006380908707837e-07,0.07254825333556848,-0.017473360529214874,0.028583456710006155,-8.17832863876806e-06,-8.965651142981911e-06
-1.3152037123453889e-08,0.02129136404809779,-0.05005513244088177,-0.0018962523645764567,7.235787805341628e-07,-4.719120296959713e-06,3.743891426156116e-07,0.07260105579936244,-0.017303164000588518,0.028521797854672532,-7.99224874479599e-06,-9.143810994218677e-06
-1.2452563516419068e-08,0.021436667307478438,-0.05008940132569547,-0.0018393274426283218,7.079501360501631e-07,-4.7377214509311874e-06,3.4973680351741045e-07,0.07265162969032365,-0.01713444240684819,0.02846246097406748,-7.81432224199987e-06,-9.300576985737169e-06
-1.1798392223779089e-08,0.021582066998744244,-0.050123336431825545,-0.001782516660562594,6.926650765906312e-07,-4.756598130070513e-06,3.2708564631998976e-07,0.07269984563290269,-0.016967553065037128,0.02840539103286389,-7.64252972976592e-06,-9.438339569662946e-06
-1.1185522400689123e-08,0.021727558720553347,-0.050156942192637645,-0.0017258155796805758,6.777139329991636e-07,-4.775717007699596e-06,3.06434911544983e-07,0.07274586090455129,-0.016802880406049953,0.028350540441009153,-7.4755717957338206e-06,-9.559438814541554e-06
-1.0609941595045314e-08,0.021873137994640378,-0.05019022379775031,-0.0016692199019174847,6.630894489224357e-07,-4.7950481969201825e-06,2.8779040282190406e-07,0.07278963704351608,-0.016640802556331245,0.028297838881545526,-7.312242038363909e-06,-9.665594610293328e-06
-1.0067959429492519e-08,0.022018800527218885,-0.05022318719574447,-0.0016127254601030995,6.48785973073145e-07,-4.814565068414382e-06,2.7099108277639736e-07,0.07283126628925413,-0.016481698997082503,0.02824722090719267,-7.151737924645381e-06,-9.7584357470996e-06
-9.55616520032012e-09,0.022164542028717562,-0.050255839062356956,-0.0015563282340598907,6.347992516953807e-07,-4.834243577145314e-06,2.558971145861999e-07,0.07287075074933938,-0.016325933306243535,0.028198613021604396,-6.993360688882144e-06,-9.839254365465984e-06
-9.071546550893238e-09,0.0223103583324873,-0.05028818677276925,-0.0015000243401248564,6.211259574708506e-07,-4.854062096022471e-06,2.4230932471344133e-07,0.07290815188487001,-0.016173855206145768,0.02815194696751714,-6.836647112265066e-06,-9.909259438578664e-06
-8.611438992273142e-09,0.02245624531135166,-0.050320238356043975,-0.0014438100315762028,6.077635105263574e-07,-4.874001041046514e-06,2.300537793100485e-07,0.07294348943218,-0.016025791637361057,0.028107154274326775,-6.68122347224659e-06,-9.969472512021457e-06
-8.173552328691834e-09,0.022602198931093602,-0.0503520024501252,-0.0013876816863049217,5.947097930678866e-07,-4.894042739935843e-06,2.189433317906538e-07,0.07297680987097173,-0.015882047040611726,0.0280641726356405,-6.526858729235432e-06,-1.0020849444664233e-05
-7.755922770089422e-09,0.022748215211442165,-0.050383488247990146,-0.0013316357991609979,5.819630097376352e-07,-4.914171212968442e-06,2.08814779301206e-07,0.07300814017428083,-0.015742898932473305,0.02802294357196196,-6.373391665125699e-06,-1.0064236516299574e-05
-7.356903132025829e-09,0.022894290249806704,-0.050414705443921584,-0.0012756689683721986,5.695215094226615e-07,-4.9343720701367215e-06,1.9950981903179634e-07,0.07303751918226915,-0.015608597965720485,0.027983415394399632,-6.220750157486882e-06,-1.0100428584139574e-05
-6.975121620572036e-09,0.02304042020271231,-0.05044566417604755,-0.0012197778841986403,5.573836825022286e-07,-4.954632370905296e-06,1.908907557268966e-07,0.07306497645280273,-0.015479366062985795,0.027945542086779164,-6.068913460216415e-06,-1.0130150384287266e-05
-6.609460335694482e-09,0.023186601296011862,-0.05047637496963467,-0.0011639593151203807,5.45547848010613e-07,-4.974940538532635e-06,1.828306424387769e-07,0.07309054664977603,-0.015355396793557284,0.027909284539129813,-5.917917245807805e-06,-1.0154083813669287e-05
-6.259021380128624e-09,0.023332829815777816,-0.0505068486796852,-0.0011082100954128808,5.340121819747996e-07,-4.99528625759988e-06,1.7521947778292937e-07,0.07311425988297647,-0.015236855025262586,0.027874609853749923,-5.767833017906688e-06,-1.017285953362198e-05
-5.711292099039332e-10,0.02347146219586247,-0.05053442916837912,-0.0010506653145029576,5.352645601451765e-07,-5.033360152158863e-06,2.843946085112345e-06,0.06931619004232796,-0.013790244346962693,0.028772390454961643,6.261890851884413e-07,-1.903694727949177e-05
5.3964710562620695e-09,0.023607180995842855,-0.050559997877828666,-0.0009913546370415678,5.411090848126133e-07,-5.089001431218001e-06,2.9838001330830013e-06,0.06785939999019268,-0.012784354724773794,0.029655338730694973,2.92226233371838e-06,-2.7820639529569392e-05
8.16687729412931e-09,0.023744832811305024,-0.05058438214573633,-0.0009302992034799585,5.443585667729021e-07,-5.162119639958816e-06,1.3852031189336209e-06,0.06882590773108392,-0.012192133953833244,0.03052771678080466,1.624740980144423e-06,-3.6559104370407e-05
1.013146860825468e-08,0.023881137629166577,-0.05060789785667291,-0.0008680364725393962,5.477277272772194e-07,-5.242966696852048e-06,9.822956570626848e-07,0.06815240893077662,-0.011757855468291766,0.03113136547028114,1.6845802521586887e-06,-4.0423528446616024e-05
1.0006742546686256e-08,0.024018312117704135,-0.05063102892997292,-0.0008046494970704426,5.48110355882413e-07,-5.330611009764206e-06,-6.236303078421187e-08,0.06858724426877841,-0.01156553665000499,0.0316934877344768,1.9131430259676094e-07,-4.3822156456078956e-05
9.126251335028157e-09,0.024154855084890257,-0.05065399984376019,-0.0007404426548226899,5.469612944115137e-07,-5.419969449487362e-06,-4.402456058290501e-07,0.06827148359306132,-0.011485456893635504,0.03210342112387635,-5.745307354496381e-07,-4.467921986157819e-05
7.086508190100928e-09,0.024291780011954235,-0.05067709122605225,-0.00067550047375631,5.430839498606326e-07,-5.510197042767737e-06,-1.0198715724636141e-06,0.068462463531989,-0.011545691146026346,0.032471090533189945,-1.938672275440552e-06,-4.511379664018794e-05
4.6338346729267414e-09,0.02442839952534979,-0.05070044821902575,-0.0006099989773576072,5.37366580998108e-07,-5.598706542756449e-06,-1.226336758587093e-06,0.06830975669777868,-0.011678496486753731,0.03275074819935141,-2.858684431262326e-06,-4.4254749994355825e-05
1.6820405529279467e-09,0.024565176674503288,-0.0507242280621681,-0.0005440057720646815,5.294739272622824e-07,-5.684967949969089e-06,-1.4758970599993974e-06,0.068388574576748,-0.011889921571175964,0.03299660264646285,-3.9463268679127745e-06,-4.313070360631976e-05
-1.3597862384318212e-09,0.024701796416068917,-0.05074851507136213,-0.0004776239630128624,5.200084756818281e-07,-5.767742844681302e-06,-1.5209133956798838e-06,0.06830987078281535,-0.012143504597017761,0.03319090452590952,-4.7327257902271575e-06,-4.138744735610685e-05
-4.48714442018285e-09,0.024838470005301823,-0.05077339032313834,-0.0004109019608021536,5.089939347034108e-07,-5.846798853919432e-06,-1.5636790908755141e-06,0.06833679461645352,-0.012437625888100667,0.03336100110535442,-5.507270489208666e-06,-3.952800461906463e-05
-7.487413598625291e-09,0.02497505275368301,-0.05079889454950267,-0.00034390030926398384,4.96862643170425e-07,-5.921626243884828e-06,-1.5001345892212203e-06,0.0682913741905927,-0.012752113182165905,0.03350082576908487,-6.065645766492901e-06,-3.741369498269835e-05
-1.0346763698538689e-08,0.025111640747903584,-0.0508250614839651,-0.0002766512570554186,4.837617181765798e-07,-5.992207944411025e-06,-1.4296750499566988e-06,0.0682939971102871,-0.013083467231215545,0.03362452610428262,-6.550462496922627e-06,-3.529085026309849e-05
-1.296627426475287e-08,0.025248167254815993,-0.050851902098190405,-0.000209189988754345,4.700054859028346e-07,-6.058421585888603e-06,-1.3097552831070908e-06,0.06826325345620529,-0.013420307112652269,0.0337306341505368,-6.878116136872559e-06,-3.310682073878877e-05
-1.5345039360224857e-08,0.02538467569755858,-0.05087942085042681,-0.00014153667940890793,4.5575932157656164e-07,-6.120383390954788e-06,-1.189382547735994e-06,0.06825422137129354,-0.013759376118200006,0.03382665467271853,-7.123082163136478e-06,-3.098090253309254e-05
-1.7448030496113108e-08,0.025521135028158084,-0.050907609294187396,-7.371121940705695e-05,4.4124817962203873e-07,-6.178168394640908e-06,-1.0514955679441247e-06,0.06822966529975223,-0.01409422188029622,0.03391273000092549,-7.255570977261457e-06,-2.8892501843060052e-05
-1.928802549520888e-08,0.02565756460129505,-0.05093645418383468,-5.725366855078423e-06,4.266136781106173e-07,-6.231963076821892e-06,-9.199974995478862e-07,0.06821478656848261,-0.014422444823644163,0.03399292627598926,-7.317250755710723e-06,-2.6897341090491812e-05
-2.0863822701755286e-08,0.025793949716857466,-0.05096593510484064,6.241022719236619e-05,4.120112491051723e-07,-6.2819339945187545e-06,-7.878986032732033e-07,0.06819255778120854,-0.01474046050297783,0.034067797023722306,-7.301214502722504e-06,-2.498545884843114e-05
-2.2196692194908698e-08,0.025930298742540835,-0.05099602863542079,0.00013068937146651924,3.975464845356717e-07,-6.328295174147176e-06,-6.664347465767052e-07,0.06817451284168405,-0.015046765290077002,0.03413957213707652,-7.232382284750304e-06,-2.318058981421051e-05
-2.3301393430545826e-08,0.026066604479773894,-0.05102670763484516,0.0001991069311612347,3.833212156120266e-07,-6.371246368589256e-06,-5.523506178185643e-07,0.06815286861653028,-0.01533949971218443,0.03420877984735773,-7.112634461822535e-06,-2.147559722104014e-05
-2.4202335157914928e-08,0.026202870293327372,-0.051057943450695954,0.0002676602074357428,3.6940591567209976e-07,-6.411002804189452e-06,-4.50470863684552e-07,0.06813290677673965,-0.015617907925396296,0.034276638137254054,-6.9576499699634335e-06,-1.9878217800098047e-05
-2.4919988311863218e-08,0.02633909243898312,-0.05108970584057169,0.00033634725782960816,3.55862165417785e-07,-6.447766310171975e-06,-3.5882657697414523e-07,0.0681110728278731,-0.015881194937865606,0.03434352519693267,-6.771875127157371e-06,-1.838175299126167e-05
-2.547807299654185e-08,0.026475272015599884,-0.05112196418140833,0.0004051674286102321,3.4273127318241374e-07,-6.481738624876729e-06,-2.7904234233931654e-07,0.06808978830838254,-0.016129170418322444,0.03441008539031198,-6.565446117685627e-06,-1.6986157352376893e-05
-2.5897243304101165e-08,0.026611406881425353,-0.05115468759402626,0.0004741205086817235,3.3004565273938154e-07,-6.513108140599187e-06,-2.095851537796567e-07,0.06806743291273443,-0.016361706308964004,0.0344765400357457,-6.3428102215161075e-06,-1.5684757861228804e-05
-2.619834447650979e-08,0.026747497120892364,-0.05118784562339139,0.000543206911630063,3.1782458096014135e-07,-6.542056116627857e-06,-1.5055058620431297e-07,0.06804511973350597,-0.016579014682563564,0.034543201474169734,-6.110535889620096e-06,-1.4473988014335104e-05
-2.6399548846240194e-08,0.026883541346994503,-0.051221408395001986,0.0006124272411853585,3.060802346340663e-07,-6.568750871412893e-06,-1.0060218486520205e-07,0.06802211305106891,-0.016781385805298452,0.034610164777647785,-5.872173163037516e-06,-1.3347377392517654e-05
-2.6517904865547832e-08,0.02701953920158763,-0.05125534700199213,0.0006817823380285638,2.948164612040093e-07,-6.5933509633737875e-06,-5.917800965381886e-08,0.06799892729656415,-0.016969303495069848,0.03467754842160269,-5.631886715028522e-06,-1.230004598044737e-05
-2.6568110897026012e-08,0.027155489663989875,-0.05128963363295759,0.0007512730538885386,2.8403214094773555e-07,-6.616002928471525e-06,-2.5103015739089164e-08,0.06797523120112235,-0.017143315482732246,0.03474535792998741,-5.392160128136857e-06,-1.1325982548868573e-05
-2.6563320761896548e-08,0.02729139219438724,-0.05132424178862881,0.000820900253258709,2.73721126292595e-07,-6.636843158353979e-06,2.3950675647315806e-09,0.06795126519868312,-0.017304077835608857,0.03481359968508521,-5.155507327570273e-06,-1.0420114941227214e-05
-2.6514687126322873e-08,0.02742724596006844,-0.05135914636592894,0.0008906646965852041,2.6387419300914235e-07,-6.655997301388681e-06,2.4316817786836615e-08,0.06792688284059954,-0.017452288650065952,0.034882221663247566,-4.923466641726326e-06,-9.57707151735105e-06
-2.643183528643625e-08,0.02756305035819628,-0.05139432377078088,0.0009605670325364121,2.54479348187844e-07,-6.673581555756863e-06,4.1425919943311107e-08,0.06790219906392003,-0.017588702425969754,0.034951167975604,-4.697422410649161e-06,-8.792127184090757e-06
-2.6322757535040764e-08,0.027698804661748917,-0.05142975196026599,0.001030607740145367,2.4552299086232315e-07,-6.6897028187669286e-06,5.453887569774336e-08,0.06787715177631845,-0.01771409474255367,0.03502035380447755,-4.478178662760426e-06,-8.060631505032943e-06
-2.6194127959934403e-08,0.027834508258427808,-0.051465410489502816,0.0011007871240940753,2.3699026281559392e-07,-6.704459683407923e-06,6.431478755318018e-08,0.06785179833944531,-0.017829264618413512,0.03508969197435407,-4.266364023364612e-06,-7.378432320497187e-06
-2.6051175200892034e-08,0.027970160485863926,-0.0515012805944405,0.0011711054243790516,2.2886630271212738e-07,-6.71794484135432e-06,7.14763795211849e-08,0.06782611371805876,-0.017935052468842284,0.035159150142488216,-4.0619800517332756e-06,-6.7425789731986134e-06
-2.5897149911699613e-08,0.02810576073128924,-0.05153734561903258,0.0012415634893630251,2.2113921113632895e-07,-6.730255465517121e-06,7.701264459621086e-08,0.06780012271265824,-0.018032512296041237,0.03522903249198676,-3.863545787899207e-06,-6.155312081400435e-06
-2.5735279842806552e-08,0.02824130839598963,-0.05157359064340536,0.0013121617329645886,2.1379532107508562e-07,-6.741477625621581e-06,8.093503444653091e-08,0.06777383235019419,-0.018122512186388474,0.03529912180078171,-3.671945030621665e-06,-5.611080052230047e-06
-2.5568492901403032e-08,0.0283768029005395,-0.05161000238521404,0.0013829001799678295,2.0681996454866797e-07,-6.751687897155396e-06,8.339347070175988e-08,0.06774725227493607,-0.018205870904341958,0.03536922350162045,-3.487678263208825e-06,-5.105135766907815e-06
-2.5400306572223107e-08,0.028512243707917332,-0.05164656573245147,0.0014537793671460229,2.0019553139569228e-07,-6.760959235504862e-06,8.409316458996261e-08,0.0677204036889167,-0.01828167361871323,0.03543959358909664,-3.312216576487843e-06,-4.635669174732585e-06
-2.523228904948143e-08,0.028647630221531262,-0.051683270945052,0.001524798452309344,1.939073563784362e-07,-6.769350845034503e-06,8.400876137083834e-08,0.06769325680696554,-0.018352606300262354,0.03550954258166055,-3.144087508628038e-06,-4.1958047648205255e-06
-2.5065653808971723e-08,0.028782961943721232,-0.05172010958552878,0.0015959563558104143,1.879410529816296e-07,-6.7769166961897674e-06,8.331762025485413e-08,0.06766586109498467,-0.018419320238390442,0.03557895175053515,-2.9831516984032944e-06,-3.782925577632173e-06
-2.4901199587627204e-08,0.02891823833629799,-0.05175707444084547,0.001667251776465788,1.8228284123423354e-07,-6.78370606489121e-06,8.222711067225921e-08,0.06763819628837799,-0.018482427658346623,0.03564771032768685,-2.8291058736980316e-06,-3.3946843507212164e-06
-2.4739424186814884e-08,0.029053458914289558,-0.051794159457507524,0.0017386832226090557,1.7691954789921234e-07,-6.789764292009317e-06,8.088770040615997e-08,0.06761028899578432,-0.01854250833102599,0.035715723071633926,-2.6816466675105934e-06,-3.0291135590535296e-06
-2.4580535364158335e-08,0.029188623182003763,-0.05183135967108281,0.0018102490302056126,1.7183873894485047e-07,-6.7951332366781865e-06,7.944441132827416e-08,0.06758213385710254,-0.018600106787641547,0.03578290379827845,-2.54040447718094e-06,-2.6844723344348575e-06
-2.442453480128538e-08,0.029323730675724063,-0.05186867114298075,0.0018819473871392932,1.670286941373646e-07,-6.799851799491186e-06,7.800028143647879e-08,0.06755374686015038,-0.018655735948970138,0.035849178466840236,-2.4050224037429283e-06,-2.359281406499811e-06
-2.4271249238004882e-08,0.0294587809343114,-0.051906090895963895,0.00195377635085787,1.6247843683300947e-07,-6.803956278936457e-06,7.664278164024742e-08,0.06752512929366791,-0.018709876491572176,0.035914481859288354,-2.2751286521775756e-06,-2.052239722635597e-06
-2.4120389855667583e-08,0.029593773518563248,-0.05194361685431255,0.0020257338681280396,1.5817768848649587e-07,-6.807480736434057e-06,7.54296911686502e-08,0.06749629212592474,-0.01876297917432683,0.035978758635084825,-2.1503741732567967e-06,-1.7622287487999832e-06
-2.3971583009001982e-08,0.02972870799761386,-0.051981247784794175,0.002097817791060105,1.5411684702140386e-07,-6.810457264852098e-06,7.440342333280013e-08,0.06746723952530552,-0.018815465240812446,0.0360419614660327,-2.030420732546004e-06,-1.4882642090202906e-06
-2.382440999179909e-08,0.02986358395762893,-0.0520189832411837,0.0021700258934188557,1.5028693072332308e-07,-6.812916243360784e-06,7.358650860144555e-08,0.06743798000753463,-0.018867728194765118,0.03610405117937536,-1.9149581490403865e-06,-1.2294892543431204e-06
-2.3678430413830487e-08,0.02999840099543484,-0.052056823510606726,0.002242355884570013,1.4667953398765756e-07,-6.8148865329582895e-06,7.298978898430191e-08,0.06740851890295485,-0.018920134711512444,0.03616499557557863,-1.803698367832757e-06,-9.851447987529636e-07
-2.353320694555289e-08,0.030133158722343283,-0.052094769562982146,0.002314805422917535,1.432867689834426e-07,-6.816395652656587e-06,7.261173413879878e-08,0.06737886345422164,-0.018973026187710008,0.03622476917376093,-1.6963825021074728e-06,-7.545598491489866e-07
-2.3388320287598913e-08,0.0302678567610913,-0.052132823002786786,0.0023873721276415753,1.4010121493625228e-07,-6.817469917324805e-06,7.244332897698884e-08,0.06734901937400908,-0.019026719902321854,0.0362833523620202,-1.5927770235951626e-06,-5.371323341088605e-07
-2.3243382901261285e-08,0.03040249474744499,-0.05217098602372879,0.002460053589607551,1.3711586351747114e-07,-6.818134557124414e-06,7.246869316881454e-08,0.06731899317684448,-0.019081510471002743,0.036340730982987755,-1.492675709390572e-06,-3.3231989980420035e-07
-2.309804677449358e-08,0.030537072328658817,-0.05220926136596943,0.0025328473809263278,1.343240704677336e-07,-6.818413811315638e-06,7.26680633838525e-08,0.067288790606914,-0.019137671120319687,0.036396895659388334,-1.3958965248687773e-06,-1.396270956121399e-07
-2.295200944167584e-08,0.030671589164069674,-0.052247652276148804,0.002605751063588373,1.317195082859773e-07,-6.818331006839249e-06,7.301866640886982e-08,0.06725841770542831,-0.019195455089686626,0.0364518413310227,-1.3022810908781422e-06,4.140223819444828e-08
-2.280501636737556e-08,0.03080604492425625,-0.05228616247003093,0.002678762196960309,1.292961246218476e-07,-6.81790861951545e-06,7.349653715014048e-08,0.06722788009328787,-0.019255096941062044,0.03650556668596789,-1.2116918320648524e-06,2.111936618998034e-07
-2.2656861852055473e-08,0.030940439291176982,-0.05232479609785886,0.0027518783443638848,1.2704810394739152e-07,-6.817168323616528e-06,7.407725766004267e-08,0.067197183460367,-0.019316813913966238,0.03655807370178781,-1.124010337228032e-06,3.701479494608623e-07
-2.250738778816232e-08,0.031074771957655,-0.052363557712304006,0.002825097078667987,1.2496983451669414e-07,-6.816131029705411e-06,7.473703194657692e-08,0.06716633323901,-0.019380807222572866,0.036609367152051035,-1.0391347153486849e-06,5.18646955558564e-07
-2.235648141274028e-08,0.031209042627312965,-0.05240245223901474,0.002898415987021773,1.2305587935599063e-07,-6.814816914138669e-06,7.545318771102101e-08,0.06713533482898096,-0.019447263355368248,0.03665945417689305,-9.569775803517468e-07,6.570577833712329e-07
-2.2204071880472952e-08,0.031343251014212065,-0.052441484949671234,0.002971832674724837,1.2130095202643973e-07,-6.813245440850119e-06,7.620476613366252e-08,0.06710419344954968,-0.019516355328246776,0.03670834385153193,-8.774636647754548e-07,7.857366442751273e-07
-2.2050126288069883e-08,0.03147739684269938,-0.052480661437505474,0.0030453447683203324,1.1969989639204686e-07,-6.811435377544927e-06,7.697279620153416e-08,0.06707291424365763,-0.01958824391712099,0.03675604679774763,-8.00527817196432e-07,9.050316525958924e-07
-2.189463881661664e-08,0.03161147984688114,-0.05251998763454357,0.0031189499022422416,1.1824768138582207e-07,-6.809404679069559e-06,7.774373572662122e-08,0.06704150209088015,-0.019663098519048426,0.03680256696095466,-7.261075031123923e-07,1.015349237684144e-06
-2.1737479321915502e-08,0.031745499765263974,-0.052559470701355186,0.0031926453577109395,1.1693964404528744e-07,-6.807167554549077e-06,7.857974735056961e-08,0.0670099591914181,-0.019741533405808573,0.036847727734348884,-6.540186702673178e-07,1.1185622602410777e-06
-2.157834737618095e-08,0.031879456348757156,-0.05259911913197933,0.0032664280268007414,1.1577165955110455e-07,-6.804734661540761e-06,7.95659728672774e-08,0.06697829174659203,-0.01982421531207267,0.03689133454490095,-5.839922470914458e-07,1.2164465041582213e-06
-2.141681132941863e-08,0.03201334935759652,-0.05263894241980963,0.003340294551175693,1.1474017378192082e-07,-6.802114705469769e-06,8.076802338115923e-08,0.06694650441968052,-0.019911643915150518,0.036933262187475766,-5.157428845918665e-07,1.3099780354961028e-06
-2.1250000442092196e-08,0.032147178514931034,-0.052678954823726934,0.0034142415290282393,1.1384891114032581e-07,-6.799325196928645e-06,8.340544366321669e-08,0.06691457866725908,-0.020006201958651163,0.03697348892627326,-4.456313207975007e-07,1.3947542705618752e-06
-2.1076731804499033e-08,0.03228094365296833,-0.05271916798156331,0.003488266775253662,1.1309952828618135e-07,-6.796392829486526e-06,8.663431879658108e-08,0.0668825690186487,-0.02010657891818817,0.03701262311271135,-3.7469142707222964e-07,1.4661837210594259e-06
-2.0896668174181207e-08,0.03241464452571491,-0.0527595941806478,0.003562367908041711,1.1249221116409647e-07,-6.793340010348612e-06,9.003181515891405e-08,0.06685043637328954,-0.0202130995422482,0.03705056639402456,-3.0365856104243855e-07,1.5264095689569697e-06
-2.0710067136494264e-08,0.03254828095579419,-0.05280024613473335,0.0036365424487394904,1.1202587111654166e-07,-6.790186257116784e-06,9.330051884347191e-08,0.06681821503964139,-0.02032597704277458,0.037087270348889693,-2.331700237774038e-07,1.5768766159140852e-06
-2.0517489816284425e-08,0.03268185273464456,-0.05284113679308611,0.0037107878828696607,1.116985101349069e-07,-6.786948912239914e-06,9.628866010491891e-08,0.06678588942518135,-0.02044532917637658,0.03712271706508518,-1.6368049081738332e-07,1.6186724384351429e-06
-2.0319706699161504e-08,0.03281535968947379,-0.05288227919381135,0.003785101716093169,1.1150731869061292e-07,-6.7836438271087976e-06,9.889155856146053e-08,0.06675347741461644,-0.02057120036262275,0.03715691661175412,-9.559572214698886e-08,1.6525425655584594e-06
-2.0117579157132688e-08,0.03294880163752421,-0.05292368634167493,0.0038594815086554104,1.1144885163649698e-07,-6.7802856989621605e-06,1.0106377101440755e-07,0.066720974025206,-0.020703573931789367,0.03718989628112068,-2.9233527057974204e-08,1.6790640733183586e-06
-1.991202610022307e-08,0.03308217841654629,-0.05296537111410375,0.003933924904634044,1.1151908427463459e-07,-6.776888371214049e-06,1.0277652845480811e-07,0.0666883895110389,-0.020842386214410643,0.03722169798931694,3.5116319068803825e-08,1.6986638740555677e-06
-1.9703975624713087e-08,0.03321548986378596,-0.053007346184827366,0.004008429649178088,1.1171350713298298e-07,-6.773464961863603e-06,1.0402523775499167e-07,0.0666557236198357,-0.02098753536180851,0.037252372272022084,9.721142917420195e-08,1.7117046752229056e-06
-1.9494352640146525e-08,0.03334873582980064,-0.053049623965575,0.004082993601758629,1.120271690270635e-07,-6.77002796870254e-06,1.048114922832813e-07,0.06662298300734179,-0.021138890373818345,0.037281976290270455,1.5683094704025964e-07,1.7184965805313836e-06
-1.9372697872465208e-08,0.03348207252907261,-0.05309222515165633,0.004157624339296479,1.1228337999595509e-07,-6.766769163573659e-06,6.082738384065797e-08,0.06666834963598188,-0.02130059304066878,0.037315368768925,1.281054844457966e-07,1.6294025644404595e-06
-2.0270652280119882e-08,0.033617188434279556,-0.053135255674646525,0.004232421309672057,1.1063934447048795e-07,-6.765591944784342e-06,-4.4897720382733716e-07,0.06755795260347562,-0.021515261495096957,0.03739848518778898,-8.220177627335713e-07,5.886093946585162e-07
-2.190694622742337e-08,0.03375412513102517,-0.05317874508115262,0.004307359290343577,1.0720562731233154e-07,-6.7659777883367214e-06,-8.181469736517441e-07,0.06846834837280785,-0.02174470325304713,0.037468990335759914,-1.7168585790782068e-06,-1.9292177618986148e-07
-2.4021084225730195e-08,0.03389284779972821,-0.05322271037679862,0.004382413921045056,1.0219263143665744e-07,-6.76743913773683e-06,-1.0570689991534124e-06,0.0693613343515205,-0.02198264782300042,0.03752731535073968,-2.506497937837046e-06,-7.306747000544322e-07
-2.6414989957078596e-08,0.03403331876961383,-0.05326716139000908,0.004457566089536912,9.581462470101594e-08,-6.769601792205587e-06,-1.1969528656742e-06,0.07023548494281141,-0.022225506605230337,0.03757608424592814,-3.18900336782075e-06,-1.0813272343784586e-06
-2.8941816295406158e-08,0.03417550095204018,-0.053312102858476616,0.004532800966769781,8.827907142585536e-08,-6.772183428962933e-06,-1.2634131691637802e-06,0.07109109121317343,-0.022470734233767456,0.037617438616434164,-3.7677766375802964e-06,-1.2908183786729884e-06
-3.14947988477147e-08,0.03431935798865339,-0.05335753593542315,0.004608107047966842,7.978215176526932e-08,-6.774972886254066e-06,-1.2764912761542727e-06,0.07192851830660558,-0.02271653847326738,0.037653040598530314,-4.248459830293018e-06,-1.3947286455667807e-06
-3.3998207340408785e-08,0.034464854245549105,-0.05340345933232411,0.004683475396282203,7.050616798281216e-08,-6.777813881350141e-06,-1.251704246347039e-06,0.07274812844785904,-0.022961698450479507,0.037684174157680723,-4.637991891228579e-06,-1.4204975480373571e-06
-3.6400123301192467e-08,0.03461195480021212,-0.053449870180256376,0.004758899055114396,6.06181876206511e-08,-6.7805923700410345e-06,-1.20095798039184e-06,0.07355027733150793,-0.023205423966130997,0.03771182941609689,-4.943990181080535e-06,-1.3892443454467072e-06
-3.866671645297203e-08,0.03476062542816409,-0.053496764670975264,0.004834372593284973,5.026955659482684e-08,-6.783226752286955e-06,-1.1332965758897833e-06,0.07433531397598508,-0.023447245359445614,0.03773676908528856,-5.174315512912127e-06,-1.3171911229598555e-06
-4.0777738517686386e-08,0.034910832589685276,-0.05354413852602312,0.004909891754336746,3.9596014146845606e-08,-6.7856602925734545e-06,-1.0555110323571772e-06,0.07510358076059248,-0.023686927523926496,0.03775958052588632,-5.3367712239906175e-06,-1.216770143249919e-06
-4.2722999093513186e-08,0.035062543416659625,-0.05359198733212614,0.004985453187219036,2.8718211466415493e-08,-6.787855260524643e-06,-9.726302879133993e-07,0.07585541348717592,-0.023924403051509,0.037780716441144946,-5.438901340215056e-06,-1.097483975594289e-06
-4.449962875643707e-08,0.03521572569957044,-0.0536403067731256,0.005061054240429426,1.7742488596437185e-08,-6.789788405581591e-06,-8.883148314619434e-07,0.07659114145540596,-0.024159720499729257,0.0378005266051949,-5.487861434989154e-06,-9.665725284744306e-07
-4.609581332774326e-08,0.035370347600521684,-0.0536891151121357,0.00513669413016514,6.80195890397528e-09,-6.791511105431186e-06,-7.98092285653095e-07,0.07731095047562392,-0.024404169505052548,0.037819944867856906,-5.4702648462309526e-06,-8.613499247974975e-07
-4.748843995366564e-08,0.03552637775080345,-0.05373846617653261,0.005212374434543555,-3.929908806225378e-09,-6.793172952169035e-06,-6.963133129611902e-07,0.0780150751408829,-0.024675532198455207,0.03784015218920797,-5.365933855100329e-06,-8.309233689245037e-07
-4.867764216130453e-08,0.035683785925105085,-0.05378840676007696,0.005288096494338922,-1.4328435337264201e-08,-6.794886253819407e-06,-5.946011038194463e-07,0.07870408715081831,-0.02497029177217345,0.03786102989768352,-5.199263265519411e-06,-8.566508251857402e-07
-4.9676999877279976e-08,0.03584254251902383,-0.05383897722535824,0.005363861497122914,-2.4306764629942682e-08,-6.796732876022555e-06,-4.996788579877219e-07,0.0793782969593701,-0.02528523264064141,0.03788250139199611,-4.9891646463392395e-06,-9.233111015738913e-07
-5.050721767055838e-08,0.036002618514127685,-0.05389021210363029,0.005439670560002909,-3.3807532285049977e-08,-6.7987703473652365e-06,-4.151088966392026e-07,0.08003799755192693,-0.02561743913602511,0.03790453143999771,-4.750383827553648e-06,-1.0187356713408287e-06
-5.1191990014422056e-08,0.036163985466072496,-0.05394214066198349,0.005515524785122798,-4.279621887821042e-08,-6.801036805934077e-06,-3.423861719318364e-07,0.08068347597240472,-0.02596427917659684,0.03792711255994463,-4.494343296580221e-06,-1.1332292844200993e-06
-5.175129881351183e-08,0.036326615391709796,-0.05399479950552552,0.005591422598809028,-5.1245443693751336e-08,-6.803543957065841e-06,-2.7965439954488773e-07,0.08131496281864918,-0.02632942177101758,0.03794890684311498,-4.224612407770458e-06,-1.25357556588211e-06
-5.204235284867584e-08,0.036490476875805235,-0.054048703360113394,0.005667254821936007,-5.872685916953337e-08,-6.805852585732521e-06,-1.4552701758200286e-07,0.08193074204771818,-0.02695192729393595,0.037916111563489625,-3.740707737891017e-06,-1.154314333339915e-06
-5.2013160689002303e-08,0.03665554404961733,-0.05410422532416234,0.005742952551871881,-6.49589843529638e-08,-6.807832190918305e-06,1.4596079836765905e-08,0.08253358690604794,-0.02776098202447279,0.03784886496793683,-3.1160625917152194e-06,-9.898025928924067e-07
-5.167575413876716e-08,0.036821791725421125,-0.05416161127980151,0.005818479530956132,-6.979627487463596e-08,-6.809545738252106e-06,1.6870327511757415e-07,0.08312383790189791,-0.02869297781958273,0.03776348954212564,-2.4186452608360824e-06,-8.567736669003788e-07
-5.107812149448347e-08,0.03698919495628055,-0.0542210170968939,0.005893820792221389,-7.319621055998858e-08,-6.811147760230662e-06,2.98816322141841e-07,0.08370161542971198,-0.029702908546195592,0.03767063063262869,-1.6999678426763108e-06,-8.010109892777654e-07
-5.0081618328488756e-08,0.03715772262572858,-0.05428346141992338,0.005968665884203323,-7.473387246017321e-08,-6.810613931995997e-06,4.982515829973591e-07,0.08426383472401454,-0.031222161514738313,0.03742254599096713,-7.688309500923136e-07,2.669141173326089e-07
-4.871598640570838e-08,0.03732735468692542,-0.05434925897376228,0.006042941855090259,-7.429862192511333e-08,-6.807918457465207e-06,6.82815961390187e-07,0.08481603059842033,-0.0328987769194475,0.03713798544346764,2.1762526752994363e-07,1.3477372653949657e-06
-4.706860156957322e-08,0.03749806897433483,-0.054418467958165566,0.006116656391607801,-7.193754800240673e-08,-6.80359142853716e-06,8.236924180675776e-07,0.08535714370470451,-0.03460449220164457,0.03685726825877123,1.1805369613532988e-06,2.1635144640235874e-06
-4.5237211823419986e-08,0.03766984240193721,-0.0544910725921066,0.0061898358909622765,-6.777644574103732e-08,-6.7981926007535136e-06,9.15694873076617e-07,0.08588671380118987,-0.03630231697051793,0.036589749677237875,2.0805511306847097e-06,2.6994138918229696e-06
-4.3312592213858674e-08,0.037842651907399626,-0.054567036218669554,0.006262508484261642,-6.198255811188661e-08,-6.792188792315821e-06,9.623098047806563e-07,0.0864047527312082,-0.03798181328147666,0.03633629664968287,2.896943814575357e-06,3.001904218845997e-06
-4.137205437402895e-08,0.03801647475170608,-0.0546463167124692,0.006334699879099027,-5.474318495228684e-08,-6.78594128858132e-06,9.70268919914864e-07,0.08691142215322852,-0.03964024689982534,0.03609569741869238,3.619686579799887e-06,3.1237518672507637e-06
-3.947764142482636e-08,0.03819128860376233,-0.0547288709181365,0.006406432760557063,-4.625212497769103e-08,-6.779720109807252e-06,9.472064746012924e-07,0.08740692602812254,-0.04127710283364897,0.035866440729017623,4.245529987297903e-06,3.110589387033918e-06
-3.767653957997423e-08,0.03836707156068256,-0.0548146559034528,0.006477727093807427,-3.670079141263374e-08,-6.773722106127667e-06,9.00550922426069e-07,0.0878914784601164,-0.042892492658149636,0.0356471666251822,4.775666782528646e-06,2.999001839792249e-06
-3.600254378112238e-08,0.03854380214896873,-0.0549036292923081,0.006548600584422801,-2.627244259941377e-08,-6.768087058276691e-06,8.369978994259236e-07,0.08836529414308453,-0.04448669442764804,0.035436745307686965,5.214174406609985e-06,2.817523925487985e-06
-3.4477962489304206e-08,0.03872145931990162,-0.05499574933562156,0.006619069102997137,-1.513859274314332e-08,-6.762910778259068e-06,7.62290645909086e-07,0.08882858546644601,-0.04606002165673121,0.03523425928716807,5.566924928135225e-06,2.588140008811094e-06
-3.31156188917499e-08,0.03890002244309969,-0.05509097491061555,0.0066891470358423745,-3.4569701521508205e-09,-6.758255453706086e-06,6.811717987771526e-07,0.08928156159903414,-0.04761278749699452,0.03503896642261899,5.8408112954962495e-06,2.3276622764913517e-06
-3.19207590038429e-08,0.03907947129945508,-0.055189265502875944,0.006758847564705849,8.62943022287503e-09,-6.7541577245184104e-06,5.974299439535017e-07,0.08972442817769864,-0.049145296130196366,0.03485026443173746,6.043200187512925e-06,2.048864593837781e-06
-3.089276921078669e-08,0.0392597860738433,-0.05529058118625627,0.006828182887317527,2.0992531641987626e-08,-6.750634959077623e-06,5.139948965281055e-07,0.09015738719410825,-0.0506578416901644,0.034667661305838836,6.181550709556298e-06,1.7613827203941094e-06
-3.00266620706949e-08,0.03944094734775584,-0.0553948826043909,0.006897164390725053,3.351884178650519e-08,-6.7476901190373025e-06,4.330535700458951e-07,0.09058063695627304,-0.05215070906731291,0.03449075170376279,6.263155072258784e-06,1.4724200201600419e-06
-2.9314323036347306e-08,0.039622936091925,-0.05550213095443115,0.006965802787525718,4.610877927085275e-08,-6.745315522847847e-06,3.5616951717379553e-07,0.09099437208457824,-0.05362417502012694,0.03431919840033252,6.294968742173779e-06,1.1872980947277221e-06
-2.8745530157504626e-08,0.039805733658980796,-0.05561228797280748,0.007034108223094476,5.8675790774876164e-08,-6.74349575158612e-06,2.8439643942134064e-07,0.09139878352789918,-0.05507850918816519,0.03415271778437862,6.283505752011706e-06,9.098856308635083e-07
-2.8308768958452307e-08,0.03998932177616632,-0.055725315922668,0.007102090360177353,7.11453527077683e-08,-6.742209887332811e-06,2.183805995261599e-07,0.0917940585927605,-0.05651397493026213,0.033991068541438886,6.234780966446072e-06,6.429321266544482e-07
-2.7991868966184246e-08,0.040173682538130355,-0.05584117758266401,0.007169758445825953,8.345392410510656e-08,-6.741433232398392e-06,1.5844999613403085e-07,0.09218038098201597,-0.057930829998006445,0.0338340428242996,6.154285698669129e-06,3.883274672096146e-07
-2.7782489069160853e-08,0.04035879839981074,-0.055959836236809474,0.007237121364550676,9.554789720948086e-08,-6.741138624929162e-06,1.0468994851169593e-07,0.09255793084019266,-0.05932932707273021,0.03368145936236189,6.046986552187145e-06,1.473037346147304e-07
-2.7668477522398673e-08,0.04054465216941853,-0.05608125566519694,0.007304187680712331,1.073825771929256e-07,-6.741297440879791e-06,5.7005773381089915e-08,0.09292688480389413,-0.0607097141937351,0.03353315808082774,5.917339991722369e-06,-7.940797531472667e-08
-2.7638129964296364e-08,0.04073122700152987,-0.05620540013539922,0.007370965672503164,1.189212114608903e-07,-6.741880352443318e-06,1.5173779051154093e-08,0.0932874160556689,-0.06207223510114074,0.033388995895416364,5.7693171339823526e-06,-2.9145578176332427e-07
-2.7680365897192992e-08,0.040918506390290516,-0.05633223439442319,0.007437463359348058,1.3013408095000337e-07,-6.742857897532597e-06,-2.1117966448314534e-08,0.09363969438032389,-0.06341712951198442,0.033248843422446855,5.606434744556538e-06,-4.887725446394708e-07
-2.7784841090368088e-08,0.041106474162736224,-0.05646172366111161,0.007503688524151778,1.4099766005377996e-07,-6.744200902841756e-06,-5.223759658754884e-08,0.0939838862228537,-0.06474463334420807,0.03311258240185975,5.431789551888289e-06,-6.715026545792786e-07
-2.7942010515447867e-08,0.041295114472230984,-0.056593833618911585,0.00756964873150314,1.514938477113656e-07,-6.745880793613434e-06,-7.85847125398899e-08,0.09432015474738001,-0.06605497889998688,0.032980103675681154,5.248093828792828e-06,-8.399453858392272e-07
-2.814315383390059e-08,0.04148441179202392,-0.05672853040894619,0.007635351342701944,1.6160926935150904e-07,-6.747869815917785e-06,-1.0057165922636208e-07,0.09464865989646659,-0.06734839501730348,0.032851305599402,5.057710820071712e-06,-9.945111521753637e-07
-2.8380373183158126e-08,0.04167435090892527,-0.0568657806233395,0.007700803528283802,1.713346474629562e-07,-6.750141191539689e-06,-1.1860967462876841e-07,0.09496955845067342,-0.06862510719665725,0.03272609279092873,4.862689055723576e-06,-1.1356878109518908e-06
-2.864657105255544e-08,0.04186491691710083,-0.05700555129875626,0.007766012278569588,1.8066423732702007e-07,-6.752669221123568e-06,-1.3309893469865765e-07,0.09528300408778088,-0.06988533770837574,0.03260437514289264,4.664794932031945e-06,-1.2640147919396656e-06
-2.893541439556902e-08,0.04205609521198427,-0.05714780991012556,0.00783098441265074,1.8959532370570553e-07,-6.755429347760186e-06,-1.4442167150678849e-07,0.09558914744172375,-0.07112930568464926,0.03248606704057583,4.4655431893427296e-06,-1.3800633183088873e-06
-2.924128976126807e-08,0.042247871484306046,-0.057292524364524755,0.00789572658613169,1.981277738944872e-07,-6.758398190492798e-06,-1.5293768284952415e-07,0.09588813616088665,-0.07235722719959958,0.0323710867404757,4.266225094390843e-06,-1.48442136630564e-06
-2.955925310986114e-08,0.0424402317142375,-0.05743966299520455,0.007960245297880681,2.0626364241588428e-07,-6.761553555113762e-06,-1.589816742965366e-07,0.09618011496572601,-0.0735693153399,0.032259355874495466,4.06793426069854e-06,-1.577682310482415e-06
-2.988497707634302e-08,0.04263316216564871,-0.05758919455574046,0.008024546895985647,2.1400682267294738e-07,-6.764874427977594e-06,-1.6286198324093922e-07,0.09646522570560646,-0.074765780267953,0.03215079905248274,3.8715901285315505e-06,-1.6604364319156627e-06
-3.02146977236596e-08,0.042826649380478324,-0.05774108821429869,0.008088637583069366,2.2136274104084497e-07,-6.768340957272595e-06,-1.6486032365829144e-07,0.09674360741480749,-0.07594682927911918,0.032045343541859395,3.67795918394879e-06,-1.7332646475007027e-06
-3.054516225650384e-08,0.04302068017321352,-0.057895313548007185,0.008152523421084903,2.2833808911102815e-07,-6.771934425192619e-06,-1.6523226642212087e-07,0.09701539636759796,-0.07711266685424648,0.03194291900776831,3.4876740350915897e-06,-1.7967339600120751e-06
-3.087357872134513e-08,0.043215241625478365,-0.058051840537423995,0.008216210335686532,2.349405900809322e-07,-6.775637213667906e-06,-1.6420823242064318e-07,0.09728072613242174,-0.07826349470840593,0.03184345730081437,3.30125048495203e-06,-1.851394237643695e-06
-3.1197568372315106e-08,0.04341032108072861,-0.05821063956109712,0.008279704120251155,2.4117879558509157e-07,-6.779432765706054e-06,-1.619948254849894e-07,0.09753972762512333,-0.07939951183656327,0.031746892282311125,3.1191027520796933e-06,-1.8977760190738147e-06
-3.151512112039625e-08,0.043605906139050944,-0.058371681390210706,0.008343010439609463,2.470619095730802e-07,-6.783305543917105e-06,-1.5877637404057007e-07,0.0977925291611668,-0.08052091455679103,0.031653159679153615,2.9415569939943143e-06,-1.9363891055255877e-06
-3.1824554285379295e-08,0.043801984652065036,-0.05853493718331348,0.008406134833533795,2.525996361433359e-07,-6.787240987425891e-06,-1.5471658249152288e-07,0.09803925650704537,-0.08162789655138739,0.03156219696216608,2.7688632851278588e-06,-1.967721754393364e-06
-3.2124474723486994e-08,0.04399854471792605,-0.0587003784811262,0.008469082720019977,2.578020485387105e-07,-6.791225468085815e-06,-1.4996021905384872e-07,0.09828003293050949,-0.08272064890636155,0.03147394324309087,2.6012061976873017e-06,-1.9922403299622326e-06
-3.241374429895623e-08,0.04419557467642617,-0.05886797720142507,0.008531859398392917,2.626794767855872e-07,-6.795246246682235e-06,-1.446347877346167e-07,0.0985149792500598,-0.08379936014943659,0.03138833918647018,2.438714123438369e-06,-2.010389298209974e-06
-3.269144859267411e-08,0.04439306310419287,-0.05903770563399885,0.008594470052259788,2.672424117202159e-07,-6.799291429638193e-06,-1.3885214685894176e-07,0.09874421388334943,-0.08486421628688702,0.03130532693343544,2.2814674673143326e-06,-2.0225914779788976e-06
-3.295686869244956e-08,0.044590998809982255,-0.05920953643567748,0.00865691975232999,2.7150142338643865e-07,-6.803349926599171e-06,-1.3271004988772602e-07,0.09896785289469195,-0.08591540083931559,0.031224850035100886,2.1295058331113763e-06,-2.0292484804892243e-06
-3.3209455878006275e-08,0.04478937083006562,-0.05938344262543052,0.008719213459117438,2.7546709200825085e-07,-6.807411409167233e-06,-1.2629359277835714e-07,0.09918601004168463,-0.08695309487651981,0.031146853393723466,1.9828343109061034e-06,-2.0307412840306424e-06
-3.34488089954885e-08,0.04498816842370739,-0.05955939757953363,0.008781356025537812,2.791499499428454e-07,-6.811466270972373e-06,-1.196765587411156e-07,0.09939879682088262,-0.0879774770515529,0.03107128321018714,1.8414289672972541e-06,-2.027430902570207e-06
-3.3674654310308526e-08,0.04518738106873253,-0.059737375026801764,0.008843352199411163,2.8256043320084543e-07,-6.815505589207094e-06,-1.1292265741001048e-07,0.09960632251257076,-0.08898872363406918,0.03099808693667612,1.705241629000033e-06,-2.0196591173601996e-06
-3.388682762694962e-08,0.04538699845718193,-0.05991734904388778,0.008905206625878431,2.857088412840784e-07,-6.819521087699776e-06,-1.0608665832054749e-07,0.09980869422469771,-0.08998700854300762,0.030927213233633833,1.5742040416164905e-06,-2.007749246341095e-06
-3.408525846959703e-08,0.045587010491053716,-0.06009929405064513,0.008966923849739008,2.8860530423855185e-07,-6.823505101565722e-06,-9.921542132370711e-08,0.10000601693589337,-0.0909725033786772,0.030858611930288753,1.4482314772367363e-06,-1.9920069329728846e-06
-3.426995612708863e-08,0.04578740727812911,-0.060283184805553676,0.009028508317715367,2.912597559517969e-07,-6.8274505434477985e-06,-9.234882874580003e-08,0.10019839353769763,-0.09194537745427248,0.030792233988179474,1.32722585662252e-06,-1.9727209410380972e-06
-3.444099737547381e-08,0.04598817912788088,-0.06046899640120741,0.009089964380649799,2.9368191284112497e-07,-6.831350871335556e-06,-8.552062419258921e-08,0.10038592487588198,-0.09290579782686957,0.03072803146721543,1.211078444664053e-06,-1.9501639438787456e-06
-3.4598515706364715e-08,0.04618931654746291,-0.060656704259863255,0.009151296295637622,2.958812571833715e-07,-6.835200057936471e-06,-7.875916544545205e-08,0.10056870979101706,-0.09385392932792094,0.03066595749391136,1.0996721711232573e-06,-1.924593300457392e-06
-3.474269190049632e-08,0.04639081023777936,-0.0608462841290498,0.009212508228100606,2.9786702442970385e-07,-6.838992561561884e-06,-7.208809706580464e-08,0.10074684515822811,-0.09478993459327298,0.03060596623149222,9.928836231661667e-07,-1.8962518127063559e-06
-3.4873745799891375e-08,0.04659265108963156,-0.06103771207723528,0.009273604253803866,2.9964819393088547e-07,-6.842723298481721e-06,-6.552694969752655e-08,0.10092042592609707,-0.09571397409274282,0.030548012851630276,8.905847505908145e-07,-1.865368459918508e-06
-3.4991929144928694e-08,0.04679483017994133,-0.06123096448955376,0.009334588360819109,3.01233482571462e-07,-6.84638761669668e-06,-5.909167251866081e-08,0.10108954515488677,-0.09662620615923705,0.030492053507621443,7.926443202882504e-07,-1.8321591074790264e-06
-3.5097519355659853e-08,0.04699733876804925,-0.06142601806358866,0.009395464451436766,3.0263134087456734e-07,-6.849981271072257e-06,-5.279510536558007e-08,0.10125429405395969,-0.09752678701745017,0.030438045308828605,6.989291515526719e-07,-1.7968271877888064e-06
-3.519081414754797e-08,0.04720016829208613,-0.06162284980521299,0.009456236344029291,3.038499511965797e-07,-6.853500399777999e-06,-4.664739594405848e-08,0.10141476201843934,-0.09841587081216316,0.030385946296262865,6.093051610061901e-07,-1.7595643528709503e-06
-3.527212688336842e-08,0.04740331036541646,-0.06182143702448525,0.00951690777486768,3.0489722767961295e-07,-6.856941501973682e-06,-4.065636791022198e-08,0.10157103666516676,-0.09929360963612946,0.030335715419194807,5.236382415166235e-07,-1.7205510978414527e-06
-3.534178257368493e-08,0.04760675677315241,-0.06202175733160037,0.009577482399893068,3.057808176742481e-07,-6.86030141668434e-06,-3.4827845158257465e-08,0.1017232038679774,-0.10016015355756054,0.030287312512694432,4.4179499731756796e-07,-1.6799573553289175e-06
-3.540011444685971e-08,0.047810499468736764,-0.06222378863289488,0.00963796379644511,3.0650810438317845e-07,-6.863577302806805e-06,-2.9165936587391816e-08,0.1018713477921776,-0.10101565064725566,0.030240698276021067,3.6364335446516147e-07,-1.6379430612321792e-06
-3.544746101867723e-08,0.04801453057059368,-0.06242750912690552,0.009698355464948719,3.0708621050982113e-07,-6.866766620192091e-06,-2.3673285908761255e-08,0.1020155509284601,-0.10186024700532179,0.030195834251804457,2.8905306332135393e-07,-1.5946586926431272e-06
-3.5484163599548466e-08,0.04821884235884581,-0.06263289730048062,0.009758660830560604,3.0752200272555995e-07,-6.869867111748357e-06,-1.8351290435617017e-08,0.10215589412606461,-0.1026940867875496,0.03015268280594229,2.1789610786941682e-07,-1.550245778133328e-06
-3.5510564183730194e-08,0.04842342727209637,-0.06283993192494346,0.00981888324477696,3.078220967955619e-07,-6.8728767865120434e-06,-1.3200292090864473e-08,0.1022924566252811,-0.10351731223141965,0.030111207108178346,1.5004703500097768e-07,-1.504837381843242e-06
-3.5527003671594665e-08,0.0486282779042751,-0.06304859205230695,0.009879025987003583,3.079928632248982e-07,-6.875793903636732e-06,-8.21974393223638e-09,0.10242531608936442,-0.1043300636817461,0.030071371113311714,8.538321466814697e-08,-1.4585585623446492e-06
-3.553382038275167e-08,0.048833387001546644,-0.06325885701153891,0.009939092266089569,3.080404333070465e-07,-6.878616957250232e-06,-3.408355578502599e-09,0.10255454863577394,-0.10513247961597728,0.030033139542992807,2.378504107414262e-08,-1.4115268067500242e-06
-3.553134882054068e-08,0.04903874745928021,-0.06347070640487723,0.009999085221825726,3.079707054737775e-07,-6.881344662134197e-06,1.2357811054928027e-09,0.10268022886678504,-0.10592469666916139,0.029996477868078415,-3.486391663450847e-08,-1.363852441982366e-06
-3.551991865561849e-08,0.049244352319079254,-0.06368412010419433,0.010059007926408757,3.0778935186028044e-07,-6.883975940181483e-06,5.715082461094911e-09,0.10280242989952226,-0.10670684965854932,0.029961352291515864,-9.067680674853e-08,-1.315639023642928e-06
-3.549985389825062e-08,0.04945019476586999,-0.06389907824741012,0.0101188633858722,3.0750182501256666e-07,-6.886509907589295e-06,1.0032378683938715e-08,0.10292122339536856,-0.10747907160789148,0.029927729731721142,-1.4376342385688263e-07,-1.2669837039061145e-06
-3.547147223435456e-08,0.04965626812504768,-0.06411556123495288,0.010178654541485067,3.0711336467529874e-07,-6.888945862747573e-06,1.4190831948028764e-08,0.10303667958884544,-0.10824149377137955,0.029895577806433937,-1.9423016863396992e-07,-1.2179775791389527e-06
-3.543508450156992e-08,0.04986256585967934,-0.06433354972626745,0.010238384271119106,3.066290046085047e-07,-6.891283274785048e-06,1.8193866392320536e-08,0.10314886731583077,-0.10899424565729046,0.029864864817018902,-2.421800333970197e-07,-1.1687060187375876e-06
